; generated by PrusaSlicer 2.9.1 on 2025-03-22 at 17:36:05 UTC


;
;

;
;

;
;

;
;
; 

; external perimeters extrusion width = 0.45mm
; perimeters extrusion width = 0.45mm
; infill extrusion width = 0.45mm
; solid infill extrusion width = 0.45mm
; top infill extrusion width = 0.42mm
; first layer extrusion width = 0.50mm

M73 P0 R48
M73 Q0 S49
M201 X4000 Y4000 Z400 E5000 ; sets maximum accelerations, mm/sec^2
M203 X400 Y400 Z12 E80 ; sets maximum feedrates, mm / sec
M204 P4000 R1250 T4000 ; sets acceleration (P, T) and retract acceleration (R), mm/sec^2
M205 X8.00 Y8.00 Z2.00 E10.00 ; sets the jerk limits, mm/sec
M205 S0 T0 ; sets the minimum extruding and travel feed rate, mm/sec

M486 S0
M486 Aheater_enclosure-heater_enclosuremount_bracket.stl
M486 S-1

;TYPE:Custom
M862.3 P "MINI" ; printer model check
M862.1 P0.4 A0 F0 ; nozzle check
M862.5 P2 ; g-code level check
M862.6 P"Input shaper" ; FW feature check
M115 U6.1.2+7894
G90 ; use absolute coordinates
M83 ; extruder relative mode
M104 S170 ; set extruder temp for bed leveling
M140 S100 ; set bed temp
M109 R170 ; wait for bed leveling temp
M190 S100 ; wait for bed temp
M569 S1 X Y ; set stealthchop for X Y
M204 T1250 ; set travel acceleration
G28 ; home all without mesh bed level
G29 ; mesh bed leveling 
M104 S260 ; set extruder temp
G92 E0

G1 X0 Y-2 Z3 F2400

M109 S260 ; wait for extruder temp

; intro line
G1 X10 Z0.2 F1000
G1 X70 E8 F900
G1 X140 E10 F700
G92 E0

M569 S0 X Y ; set spreadcycle for X Y
M204 T4000 ; restore travel acceleration
M572 W0.06 ; set smooth time
M221 S95 ; set flow
G21 ; set units to millimeters
G90 ; use absolute coordinates
M83 ; use relative distances for extrusion
M572 S0.19
M107
;LAYER_CHANGE
;Z:0.2
;HEIGHT:0.2
G1 E-2.5 F4200
G1 Z.4 F720
G1 X112.388 Y71.286 F24000
G1 Z.2 F720
G1 E2.5 F2400
M204 P500
;TYPE:Skirt/Brim
;WIDTH:0.5
G1 F1800
G3 X112.424 Y71.231 I1.942 J1.232 E.0025
G3 X113.789 Y70.19 I2.394 J1.724 E.0662
G1 X114.187 Y70.115 E.01539
G1 X134.013 Y70.119 E.75351
G3 X135.029 Y70.524 I-.312 J2.264 E.04198
G3 X136.032 Y71.86 I-1.731 J2.343 E.0644
G1 X136.107 Y72.257 E.01536
G1 X136.107 Y110.113 E1.43877
G1 X163.396 Y110.115 E1.03715
G3 X164.427 Y110.495 I-.251 J2.271 E.04217
G3 X165.468 Y111.86 I-1.724 J2.393 E.0662
G1 X165.543 Y112.258 E.01539
G1 X165.53 Y116.248 E.15165
G3 X163.794 Y118.206 I-2.506 J-.474 E.10443
G1 X130.785 Y124.114 E1.27449
G3 X122.271 Y118.289 I-.982 J-7.7 E.42884
G1 X112.084 Y76.803 E1.62357
G1 X112.044 Y72.268 E.17237
G3 X112.356 Y71.337 I2.286 J.25 E.03761
M204 P2000
M204 T4000
G1 X112.747 Y71.573 F24000
M204 P500
G1 F1800
G3 X112.799 Y71.493 I1.55 J.936 E.00363
G3 X113.903 Y70.633 I2.006 J1.437 E.05393
G1 X114.21 Y70.572 E.0119
G1 X133.987 Y70.576 E.75165
G3 X134.73 Y70.87 I-.279 J1.793 E.03062
G3 X135.589 Y71.973 I-1.438 J2.006 E.05387
G1 X135.65 Y72.281 E.01193
G1 X135.65 Y110.57 E1.45522
G1 X163.378 Y110.572 E1.05384
G3 X164.165 Y110.87 I-.231 J1.799 E.03228
G3 X165.025 Y111.973 I-1.437 J2.005 E.0539
G1 X165.086 Y112.281 E.01193
G1 X165.078 Y116.178 E.14811
G3 X163.693 Y117.76 I-2.052 J-.399 E.08373
G1 X130.716 Y123.662 E1.27325
G3 X122.714 Y118.177 I-.913 J-7.247 E.40324
G1 X112.535 Y76.721 E1.62239
G1 X112.501 Y72.284 E.16864
G3 X112.717 Y71.625 I1.796 J.225 E.02652
M204 P2000
G1 X113.121 Y71.855 F24000
M204 P500
G1 F1800
G3 X114.057 Y71.064 I1.548 J.882 E.04755
G1 X114.233 Y71.029 E.00682
G1 X133.961 Y71.033 E.74979
G1 X134.092 Y71.063 E.00511
G3 X135.158 Y72.127 I-.62 J1.686 E.05907
G1 X135.193 Y72.303 E.00682
G1 X135.193 Y111.027 E1.47176
G1 X163.491 Y111.052 E1.0755
G3 X164.594 Y112.127 I-.571 J1.689 E.06053
G1 X164.629 Y112.303 E.00682
G1 X164.626 Y116.112 E.14477
G3 X163.593 Y117.313 I-1.606 J-.336 E.06283
G1 X130.647 Y123.21 E1.27206
G3 X123.157 Y118.065 I-.845 J-6.795 E.37763
G1 X112.985 Y76.638 E1.62126
G1 X112.981 Y72.168 E.16989
M73 P1 R48
M73 Q1 S49
G3 X113.093 Y71.908 I1.688 J.569 E.01077
M204 P2000
G1 X113.5 Y72.115 F24000
M204 P500
G1 F1800
G3 X114.211 Y71.495 I1.123 J.571 E.03675
G1 X133.896 Y71.486 E.74815
G3 X134.727 Y72.282 I-.361 J1.209 E.04541
G1 X134.736 Y111.484 E1.48992
G1 X163.332 Y111.486 E1.08683
G3 X164.163 Y112.282 I-.361 J1.209 E.04541
G1 X164.172 Y116.055 E.1434
G3 X163.493 Y116.867 I-1.184 J-.3 E.04161
G1 X130.578 Y122.758 E1.27086
G3 X123.6 Y117.953 I-.776 J-6.342 E.35203
G1 X113.435 Y76.555 E1.62012
G1 X113.415 Y72.327 E.16069
G3 X113.474 Y72.169 I1.208 J.359 E.00641
M204 P2000
G1 X113.877 Y72.385 F24000
M204 P500
G1 F1800
G3 X114.323 Y71.943 I.941 J.503 E.02422
M73 Q1 S48
G1 X133.828 Y71.943 E.74131
G1 X133.912 Y71.978 E.00346
G1 X134.279 Y72.394 E.02108
G1 X134.279 Y111.397 E1.48236
G2 X134.775 Y111.942 I.529 J.016 E.03098
G1 X163.264 Y111.943 E1.08276
G3 X163.715 Y112.394 I-.495 J.946 E.02462
G1 X163.715 Y115.995 E.13686
G1 X163.353 Y116.428 E.02145
G1 X130.532 Y122.303 E1.26723
G3 X124.043 Y117.841 I-.731 J-5.886 E.3273
G1 X113.886 Y76.473 E1.61894
G1 X113.873 Y72.443 E.15317
M204 P2000
G1 X114.33 Y72.534 F24000
M204 P500
G1 F1800
G1 X114.463 Y72.4 E.00718
G1 X133.688 Y72.4 E.73067
G1 X133.822 Y72.534 E.0072
G1 X133.822 Y111.42 E1.47791
G2 X134.751 Y112.399 I.981 J-.001 E.05657
G1 X163.124 Y112.4 E1.07835
G1 X163.258 Y112.534 E.0072
G1 X163.258 Y115.872 E.12687
G1 X163.151 Y115.999 E.00631
G1 X130.484 Y121.848 E1.2613
G3 X124.486 Y117.729 I-.683 J-5.43 E.30249
G1 X114.336 Y76.39 E1.61781
G1 X114.33 Y72.594 E.14427
M204 P2000
G1 E-2.5 F4200
G1 Z.4 F720
M486 S0
G1 X133.343 Y72.879 F24000
G1 Z.2 F720
G1 E2.5 F2400
M204 P500
;TYPE:External perimeter
;WIDTH:0.499999
G1 F1800
G1 X133.343 Y111.432 E1.46526
G1 X133.475 Y112.023 E.02302
G1 X133.798 Y112.479 E.02124
G1 X134.216 Y112.755 E.01904
G1 X134.733 Y112.877 E.02019
G1 X162.779 Y112.879 E1.06592
G1 X162.779 Y114.349 E.05587
G1 X162.779 Y115.58 E.04679
G1 X130.694 Y121.326 E1.23883
G3 X129.68 Y121.407 I-.987 J-5.981 E.03871
G1 X128.987 Y121.348 E.02643
G1 X128.276 Y121.177 E.02779
G1 X127.598 Y120.896 E.02789
G3 X126.596 Y120.246 I3.411 J-6.352 E.04545
G3 X125.628 Y119.167 I4.9 J-5.372 E.05518
G1 X125.273 Y118.53 E.02772
G3 X124.951 Y117.612 I11.792 J-4.662 E.03698
G1 X114.808 Y76.306 E1.61653
G1 X114.808 Y72.879 E.13025
G1 X133.283 Y72.879 E.70217
M204 P2000
G1 X133.343 Y73.274 F24000
G1 X132.886 Y73.336
M204 P500
;TYPE:Perimeter
G1 F1800
G1 X132.886 Y111.432 E1.44789
G1 X132.993 Y112.031 E.02313
M73 P1 R47
G1 X133.095 Y112.277 E.01012
G1 X133.438 Y112.77 E.02283
G1 X133.877 Y113.094 E.02074
G1 X134.105 Y113.198 E.00952
G1 X134.733 Y113.334 E.02442
G1 X162.322 Y113.336 E1.04856
G1 X162.322 Y114.349 E.0385
G1 X162.322 Y115.197 E.03223
G1 X130.375 Y120.919 E1.23351
G3 X129.067 Y120.897 I-.553 J-6.126 E.04981
M73 P2 R47
M73 Q2 S48
G1 X128.41 Y120.739 E.02568
G3 X126.89 Y119.895 I1.782 J-5.001 E.06638
G3 X126.139 Y119.092 I4.802 J-5.241 E.04183
G3 X125.393 Y117.498 I4.774 J-3.205 E.06715
G1 X115.265 Y76.251 E1.61421
G1 X115.265 Y73.336 E.11079
G1 X132.826 Y73.336 E.66743
M204 P2000
G1 X132.429 Y73.793 F24000
M204 P500
G1 F1800
G1 X132.429 Y111.432 E1.43052
G1 X132.544 Y112.12 E.02651
G1 X132.715 Y112.531 E.01692
G1 X133.11 Y113.088 E.02595
G1 X133.614 Y113.467 E.02397
G1 X133.994 Y113.641 E.01588
G1 X134.733 Y113.791 E.02866
G1 X161.865 Y113.793 E1.03119
G1 X161.865 Y114.349 E.02113
G1 X161.865 Y114.815 E.01771
G1 X130.316 Y120.465 E1.21814
G3 X129.147 Y120.446 I-.497 J-5.494 E.04452
G1 X128.543 Y120.301 E.02361
G3 X127.04 Y119.425 I1.637 J-4.536 E.06648
G1 X126.617 Y118.971 E.02358
G3 X125.836 Y117.383 I4.174 J-3.039 E.06759
G1 X115.722 Y76.195 E1.61191
G1 X115.722 Y73.793 E.09129
G1 X132.369 Y73.793 E.63269
M204 P2000
G1 X131.972 Y74.25 F24000
M204 P500
G1 F1800
G1 X131.972 Y111.432 E1.41315
G1 X132.003 Y111.746 E.01199
G1 X132.188 Y112.511 E.02991
G1 X132.335 Y112.785 E.01182
G1 X132.782 Y113.407 E.02911
G1 X133.009 Y113.601 E.01135
G1 X133.598 Y113.984 E.0267
G1 X134.344 Y114.2 E.02952
G1 X134.733 Y114.248 E.0149
G1 X161.408 Y114.25 E1.01382
G1 X161.408 Y114.349 E.00376
G1 X161.408 Y114.432 E.00315
G1 X130.679 Y119.935 E1.18647
G3 X129.556 Y120.033 I-1.005 J-5.048 E.04293
G3 X128.511 Y119.801 I.719 J-5.709 E.04074
G3 X127.597 Y119.295 I1.605 J-3.979 E.0398
G3 X126.786 Y118.427 I3.697 J-4.268 E.04523
G1 X126.52 Y117.951 E.02072
G1 X126.278 Y117.269 E.0275
G1 X116.179 Y76.14 E1.60959
G1 X116.179 Y74.25 E.07183
G1 X131.912 Y74.25 E.59795
M204 P2000
G1 X130.857 Y74.433 F24000
M204 P500
;TYPE:Solid infill
;WIDTH:0.504078
G1 F1800
G1 X131.584 Y75.16 E.03942
G1 X131.584 Y75.812 E.025
G1 X130.41 Y74.638 E.06366
G1 X129.758 Y74.638 E.025
G1 X131.584 Y76.464 E.09902
G1 X131.584 Y77.116 E.025
G1 X129.106 Y74.638 E.13438
G1 X128.454 Y74.638 E.025
G1 X131.584 Y77.768 E.16974
G1 X131.584 Y78.42 E.025
G1 X127.802 Y74.638 E.20509
G1 X127.149 Y74.638 E.02504
G1 X131.584 Y79.073 E.2405
G1 X131.584 Y79.725 E.025
G1 X126.497 Y74.638 E.27586
G1 X125.845 Y74.638 E.025
G1 X131.584 Y80.377 E.31122
G1 X131.584 Y81.029 E.025
G1 X125.193 Y74.638 E.34658
G1 X124.541 Y74.638 E.025
G1 X131.584 Y81.681 E.38193
G1 X131.584 Y82.334 E.02504
G1 X123.889 Y74.638 E.41732
G1 X123.236 Y74.638 E.02504
G1 X131.584 Y82.986 E.4527
G1 X131.584 Y83.638 E.025
G1 X122.584 Y74.638 E.48806
G1 X121.932 Y74.638 E.025
G1 X131.584 Y84.29 E.52341
G1 X131.584 Y84.942 E.025
G1 X121.28 Y74.638 E.55877
G1 X120.628 Y74.638 E.025
G1 X131.584 Y85.594 E.59413
G1 X131.584 Y86.247 E.02504
G1 X119.975 Y74.638 E.62954
G1 X119.323 Y74.638 E.025
G1 X131.584 Y86.899 E.6649
G1 X131.584 Y87.551 E.025
G1 X118.671 Y74.638 E.70025
G1 X118.019 Y74.638 E.025
G1 X131.584 Y88.203 E.73561
G1 X131.584 Y88.855 E.025
G1 X117.367 Y74.638 E.77097
G1 X116.715 Y74.638 E.025
G1 X131.584 Y89.507 E.80633
G1 X131.584 Y90.16 E.02504
G1 X116.568 Y75.144 E.8143
G1 X116.568 Y75.796 E.025
G1 X131.584 Y90.812 E.8143
G1 X131.584 Y91.464 E.025
G1 X116.683 Y76.564 E.80803
G1 X116.896 Y77.428 E.03412
G1 X131.584 Y92.116 E.79651
G1 X131.584 Y92.768 E.025
G1 X117.108 Y78.293 E.78499
G1 X117.32 Y79.157 E.03411
G1 X131.584 Y93.421 E.77352
G1 X131.584 Y94.073 E.025
G1 X117.532 Y80.021 E.76202
G1 X117.745 Y80.886 E.03416
M73 P3 R47
G1 X131.584 Y94.725 E.75047
G1 X131.584 Y95.377 E.025
M73 Q3 S48
G1 X117.957 Y81.75 E.73897
G1 X118.169 Y82.615 E.03415
G1 X131.584 Y96.029 E.72745
G1 X131.584 Y96.681 E.025
G1 X118.381 Y83.479 E.71595
G1 X118.594 Y84.344 E.03416
G1 X131.584 Y97.334 E.70443
G1 X131.584 Y97.986 E.025
G1 X118.806 Y85.208 E.69293
G1 X119.018 Y86.072 E.03411
G1 X131.584 Y98.638 E.68144
G1 X131.584 Y99.29 E.025
G1 X119.23 Y86.937 E.66991
G1 X119.443 Y87.801 E.03412
G1 X131.584 Y99.942 E.65839
G1 X131.584 Y100.594 E.025
G1 X119.655 Y88.666 E.64687
G1 X119.867 Y89.53 E.03411
G1 X131.584 Y101.247 E.6354
G1 X131.584 Y101.899 E.025
G1 X120.079 Y90.395 E.62387
G1 X120.292 Y91.259 E.03412
G1 X131.584 Y102.551 E.61235
G1 X131.584 Y103.203 E.025
G1 X120.504 Y92.123 E.60085
M73 Q3 S47
G1 X120.716 Y92.988 E.03415
G1 X131.584 Y103.855 E.58933
G1 X131.584 Y104.508 E.02504
G1 X120.928 Y93.852 E.57786
G1 X121.141 Y94.717 E.03416
G1 X131.584 Y105.16 E.56631
G1 X131.584 Y105.812 E.025
G1 X121.353 Y95.581 E.55481
G1 X121.565 Y96.446 E.03415
G1 X131.584 Y106.464 E.54329
G1 X131.584 Y107.116 E.025
G1 X121.778 Y97.31 E.53177
G1 X121.99 Y98.174 E.03411
G1 X131.584 Y107.768 E.52027
G1 X131.584 Y108.421 E.02504
G1 X122.202 Y99.039 E.50877
G1 X122.414 Y99.903 E.03411
G1 X131.584 Y109.073 E.49728
G1 X131.584 Y109.725 E.025
G1 X122.627 Y100.768 E.48573
G1 X122.839 Y101.632 E.03411
G1 X131.584 Y110.377 E.47423
G1 X131.584 Y111.029 E.025
G1 X123.051 Y102.497 E.46271
G1 X123.263 Y103.361 E.03411
G1 X131.86 Y111.957 E.46618
M204 P2000
G1 E-2.5 F4200
G1 Z.4 F720
G1 X157.813 Y114.432 F24000
G1 Z.2 F720
G1 E2.5 F2400
M204 P500
G1 F1800
G1 X158.024 Y114.644 E.01147
G1 X157.471 Y114.743 E.02154
G1 X157.367 Y114.638 E.00567
G1 X156.714 Y114.638 E.02504
G1 X156.918 Y114.842 E.01106
G1 X156.365 Y114.941 E.02154
G1 X156.062 Y114.638 E.01643
G1 X155.41 Y114.638 E.025
G1 X155.812 Y115.04 E.0218
G1 X155.259 Y115.139 E.02154
G1 X154.758 Y114.638 E.02717
G1 X154.105 Y114.638 E.02504
G1 X154.706 Y115.238 E.03256
G1 X154.152 Y115.337 E.02158
G1 X153.453 Y114.638 E.03791
G1 X152.801 Y114.638 E.025
G1 X153.599 Y115.436 E.04327
G1 X153.046 Y115.535 E.02154
G1 X152.149 Y114.638 E.04864
G1 X151.497 Y114.638 E.025
G1 X152.493 Y115.634 E.05401
G1 X151.94 Y115.733 E.02154
G1 X150.844 Y114.638 E.05941
G1 X150.192 Y114.638 E.025
G1 X151.387 Y115.832 E.06478
G1 X150.834 Y115.931 E.02154
G1 X149.54 Y114.638 E.07014
G1 X148.888 Y114.638 E.025
G1 X150.281 Y116.03 E.07551
G1 X149.727 Y116.129 E.02158
G1 X148.236 Y114.638 E.08085
G1 X147.583 Y114.638 E.02504
G1 X149.174 Y116.229 E.08628
G1 X148.621 Y116.328 E.02154
G1 X146.931 Y114.638 E.09165
G1 X146.279 Y114.638 E.025
G1 X148.068 Y116.427 E.09702
G1 X147.515 Y116.526 E.02154
G1 X145.627 Y114.637 E.10241
G1 X144.975 Y114.637 E.025
G1 X146.962 Y116.625 E.10778
G1 X146.409 Y116.724 E.02154
G1 X144.322 Y114.637 E.11318
G1 X143.67 Y114.637 E.025
G1 X145.856 Y116.823 E.11854
G1 X145.303 Y116.922 E.02154
G1 X143.018 Y114.637 E.12391
G1 X142.366 Y114.637 E.025
G1 X144.749 Y117.021 E.12925
G1 X144.196 Y117.12 E.02154
G1 X141.714 Y114.637 E.13462
G1 X141.061 Y114.637 E.02504
G1 X143.643 Y117.219 E.14002
G1 X143.09 Y117.318 E.02154
G1 X140.409 Y114.637 E.14539
G1 X139.757 Y114.637 E.025
G1 X142.537 Y117.417 E.15076
G1 X141.984 Y117.516 E.02154
G1 X139.105 Y114.637 E.15612
G1 X138.452 Y114.637 E.02504
G1 X141.431 Y117.615 E.16152
G1 X140.878 Y117.714 E.02154
G1 X137.8 Y114.637 E.16689
G1 X137.148 Y114.637 E.025
G1 X140.324 Y117.813 E.17223
G1 X139.771 Y117.912 E.02154
G1 X136.496 Y114.637 E.1776
G1 X135.844 Y114.637 E.025
G1 X139.218 Y118.012 E.18299
G1 X138.665 Y118.111 E.02154
G1 X135.191 Y114.637 E.18839
G3 X134.513 Y114.611 I-.196 J-3.75 E.02605
G1 X138.112 Y118.21 E.19517
G1 X137.559 Y118.309 E.02154
G1 X133.671 Y114.421 E.21084
G3 X133.133 Y114.163 I.591 J-1.923 E.02296
G3 X132.502 Y113.678 I2.845 J-4.348 E.03055
G3 X131.83 Y112.662 I3.792 J-3.244 E.04683
G1 X131.789 Y112.539 E.00497
G1 X123.476 Y104.225 E.45083
G1 X123.688 Y105.09 E.03415
G1 X137.006 Y118.408 E.72222
G1 X136.453 Y118.507 E.02154
G1 X123.9 Y105.954 E.68073
G1 X124.112 Y106.819 E.03415
G1 X135.899 Y118.606 E.63919
G1 X135.346 Y118.705 E.02154
G1 X124.325 Y107.683 E.59768
G1 X124.537 Y108.548 E.03415
G1 X134.793 Y118.804 E.55617
G1 X134.24 Y118.903 E.02154
G1 X124.749 Y109.412 E.51468
G1 X124.961 Y110.276 E.03411
G1 X133.687 Y119.002 E.4732
G1 X133.134 Y119.101 E.02154
G1 X125.174 Y111.141 E.43166
G1 X125.386 Y112.005 E.03411
G1 X132.581 Y119.2 E.39018
G1 X132.028 Y119.299 E.02154
M73 P3 R46
G1 X125.598 Y112.87 E.34866
G1 X125.81 Y113.734 E.03411
G1 X131.474 Y119.398 E.30715
G1 X130.921 Y119.497 E.02154
G1 X126.023 Y114.599 E.26561
G1 X126.235 Y115.463 E.03411
G1 X130.368 Y119.596 E.22413
G3 X129.768 Y119.648 I-.533 J-2.677 E.02314
G1 X126.447 Y116.327 E.18009
G1 X126.66 Y117.193 E.0342
M73 P4 R46
G1 X129.011 Y119.544 E.12749
G3 X128.23 Y119.245 I.582 J-2.692 E.03219
G3 X127.638 Y118.823 I2.026 J-3.466 E.02792
G1 X126.685 Y117.87 E.05168
M204 P2000
;LAYER_CHANGE
;Z:0.35
;HEIGHT:0.15
;BEFORE_LAYER_CHANGE
G92 E0.0
;0.35
M201 X3999.33 Y3999.33

G1 E-2.5 F4200
G1 Z.35 F720
;AFTER_LAYER_CHANGE
;0.35
M74 W0.292569

G1 Z.55
G1 X133.568 Y72.654 F24000
G1 Z.35 F720
G1 E2.5 F2400
M204 P1500
;TYPE:External perimeter
;WIDTH:0.449999
G1 F2348.242
G1 X133.568 Y73.329 E.01759
G1 F2667.556
G1 X133.568 Y110.754 E.97514
G1 F2699.997
M73 Q4 S47
G1 X133.568 Y111.429 E.01759
G1 F2692.69
G1 X133.614 Y111.754 E.00855
G1 X133.76 Y112.083 E.00938
G1 X133.953 Y112.318 E.00792
G1 F2695.732
G2 X134.793 Y112.654 I.881 J-.988 E.02406
G1 F2699.997
G1 X162.329 Y112.654 E.71747
G1 F1500
G1 X163.229 Y112.654 E.02345
G1 F1425.793
G1 X163.257 Y112.654 E.00073
G1 F1402.843
G1 X163.257 Y115.98 E.08666
G1 X162.335 Y116.145 E.02441
G1 F1425.536
G1 X131.676 Y121.641 E.81158
G1 X130.763 Y121.805 E.02417
G1 X130.232 Y121.874 E.01395
G1 F1426.616
G1 X129.575 Y121.885 E.01712
G1 X128.908 Y121.819 E.01746
G1 F1427.063
G1 X128.133 Y121.633 E.02077
G1 X127.394 Y121.336 E.02075
