; generated by PrusaSlicer 2.9.0 on 2025-03-05 at 20:33:13 UTC


;
;

;
;

;
;

;
;
; 

; external perimeters extrusion width = 0.45mm
; perimeters extrusion width = 0.45mm
; infill extrusion width = 0.45mm
; solid infill extrusion width = 0.45mm
; top infill extrusion width = 0.42mm
; support material extrusion width = 0.36mm
; first layer extrusion width = 0.50mm

; external perimeters extrusion width = 0.45mm
; perimeters extrusion width = 0.45mm
; infill extrusion width = 0.45mm
; solid infill extrusion width = 0.45mm
; top infill extrusion width = 0.42mm
; support material extrusion width = 0.36mm
; first layer extrusion width = 0.50mm

M73 P0 R17
M73 Q0 S17
M201 X4000 Y4000 Z400 E5000 ; sets maximum accelerations, mm/sec^2
M203 X400 Y400 Z12 E80 ; sets maximum feedrates, mm / sec
M204 P4000 R1250 T4000 ; sets acceleration (P, T) and retract acceleration (R), mm/sec^2
M205 X8.00 Y8.00 Z2.00 E10.00 ; sets the jerk limits, mm/sec
M205 S0 T0 ; sets the minimum extruding and travel feed rate, mm/sec

M486 S0
M486 Aheater_enclosure-heater_enclosuredisplay_clamp.stl
M486 S-1
M486 S1
M486 Aheater_enclosure-heater_enclosuredisplay_clamp.stl
M486 S-1

;TYPE:Custom
M862.3 P "MINI" ; printer model check
M862.1 P0.4 A0 F0 ; nozzle check
M862.5 P2 ; g-code level check
M862.6 P"Input shaper" ; FW feature check
M115 U6.1.2+7894
G90 ; use absolute coordinates
M83 ; extruder relative mode
M104 S170 ; set extruder temp for bed leveling
M140 S60 ; set bed temp
M109 R170 ; wait for bed leveling temp
M190 S60 ; wait for bed temp
M569 S1 X Y ; set stealthchop for X Y
M204 T1250 ; set travel acceleration
G28 ; home all without mesh bed level
G29 ; mesh bed leveling 
M104 S230 ; set extruder temp
G92 E0

G1 X0 Y-2 Z3 F2400

M109 S230 ; wait for extruder temp

; intro line
G1 X10 Z0.2 F1000
G1 X70 E8 F900
G1 X140 E10 F700
G92 E0

M569 S0 X Y ; set spreadcycle for X Y
M204 T4000 ; restore travel acceleration
M572 W0.06 ; set smooth time
M221 S95 ; set flow
G21 ; set units to millimeters
G90 ; use absolute coordinates
M83 ; use relative distances for extrusion
M572 S0.27
M107
;LAYER_CHANGE
;Z:0.2
;HEIGHT:0.2
G1 E-2.5 F4200
M73 P1 R17
M73 Q1 S17
G1 Z.4 F720
G1 X21.975 Y129.281 F24000
G1 Z.2 F720
G1 E2.5 F2400
M204 P500
;TYPE:Skirt/Brim
;WIDTH:0.5
G1 F1800
G1 X24.267 Y129.286 E.08711
G1 X24.399 Y129.315 E.00514
G3 X25.465 Y130.38 I-.619 J1.687 E.0591
G1 X25.5 Y130.556 E.00682
G1 X25.5 Y163.806 E1.26371
G3 X25.262 Y164.382 I-1.253 J-.182 E.02393
G3 X24.402 Y165.046 I-1.516 J-1.074 E.04191
G1 X24.226 Y165.081 E.00682
G1 X21.975 Y165.081 E.08555
G3 X21.399 Y164.842 I.182 J-1.254 E.02395
G3 X20.735 Y163.981 I1.076 J-1.515 E.04194
G1 X20.701 Y163.806 E.00678
G1 X20.701 Y130.556 E1.26371
G3 X20.939 Y129.98 I1.253 J.182 E.02393
G3 X21.799 Y129.316 I1.516 J1.075 E.04191
G1 X21.916 Y129.293 E.00453
M204 P2000
M204 T4000
G1 X21.916 Y129.293 F24000
G1 X21.954 Y129.747
M204 P500
G1 F1800
G1 X24.203 Y129.738 E.08548
G3 X25.034 Y130.534 I-.361 J1.209 E.04541
G1 X25.043 Y163.784 E1.26371
G3 X24.247 Y164.615 I-1.209 J-.361 E.04541
G1 X21.998 Y164.624 E.08548
G3 X21.167 Y163.828 I.361 J-1.209 E.04541
G1 X21.158 Y130.578 E1.26371
G3 X21.897 Y129.768 I1.209 J.361 E.04311
M204 P2000
G1 X21.897 Y129.768 F24000
G1 X22.066 Y130.195
M204 P500
G1 F1800
G1 X24.135 Y130.195 E.07864
G1 X24.219 Y130.23 E.00346
G1 X24.586 Y130.646 E.02108
G1 X24.586 Y163.716 E1.25687
G3 X24.135 Y164.167 I-.946 J-.495 E.02462
G1 X22.066 Y164.167 E.07864
G3 X21.615 Y163.716 I.495 J-.946 E.02462
G1 X21.615 Y130.646 E1.25687
G3 X22.013 Y130.225 I.946 J.495 E.0223
M204 P2000
G1 X22.013 Y130.225 F24000
G1 X22.206 Y130.653
M204 P500
G1 F1800
G1 X23.995 Y130.653 E.06799
G1 X24.129 Y130.786 E.00718
G1 X24.129 Y163.576 E1.24623
G1 X23.995 Y163.71 E.0072
G1 X22.206 Y163.71 E.06799
G1 X22.072 Y163.576 E.0072
G1 X22.072 Y130.786 E1.24623
G1 X22.163 Y130.695 E.00489
M73 P2 R17
M73 Q2 S17
M204 P2000
G1 E-2.5 F4200
G1 X22.163 Y130.695 Z.4 F721
G1 X22.163 Y120.814 F24000
G1 Z.2 F720
G1 E2.5 F2400
M204 P500
G1 F1800
G1 X21.569 Y120.814 E.02258
G3 X20.993 Y120.575 I.182 J-1.255 E.02395
G3 X20.329 Y119.714 I1.075 J-1.515 E.04194
G1 X20.294 Y119.539 E.00678
G1 X20.294 Y86.289 E1.26371
G3 X20.533 Y85.713 I1.254 J.182 E.02395
G3 X21.393 Y85.049 I1.515 J1.074 E.04191
G1 X21.569 Y85.014 E.00682
G1 X23.861 Y85.018 E.08711
G1 X23.993 Y85.048 E.00514
G3 X25.059 Y86.113 I-.62 J1.687 E.0591
G1 X25.094 Y86.289 E.00682
G1 X25.094 Y119.539 E1.26371
G3 X24.856 Y120.115 I-1.254 J-.182 E.02393
G3 X23.995 Y120.779 I-1.516 J-1.075 E.04194
G1 X23.819 Y120.814 E.00682
G1 X22.223 Y120.814 E.06066
M204 P2000
G1 X22.223 Y120.814 F24000
G1 X22.222 Y120.354
M204 P500
G1 F1800
G1 X21.591 Y120.357 E.02398
G3 X20.76 Y119.561 I.361 J-1.209 E.04541
G1 X20.751 Y86.311 E1.26371
G3 X21.547 Y85.48 I1.209 J.361 E.04541
M73 P2 R16
G1 X23.797 Y85.471 E.08551
G3 X24.628 Y86.267 I-.361 J1.209 E.04541
G1 X24.637 Y119.517 E1.26371
G3 X23.841 Y120.348 I-1.209 J-.361 E.04541
G1 X22.282 Y120.354 E.05925
M204 P2000
G1 X22.282 Y120.354 F24000
G1 X22.282 Y119.899
M204 P500
G1 F1800
G1 X21.659 Y119.899 E.02368
G3 X21.208 Y119.449 I.495 J-.945 E.02459
G1 X21.208 Y86.379 E1.25687
G3 X21.659 Y85.928 I.946 J.495 E.02462
G1 X23.729 Y85.928 E.07867
G1 X23.813 Y85.963 E.00346
G1 X24.18 Y86.379 E.02108
G1 X24.18 Y119.449 E1.25687
G3 X23.729 Y119.899 I-.946 J-.495 E.02459
G1 X22.342 Y119.899 E.05271
M204 P2000
G1 X22.342 Y119.899 F24000
G1 X22.342 Y119.442
M204 P500
G1 F1800
G1 X21.799 Y119.442 E.02064
G1 X21.666 Y119.308 E.00718
G1 X21.666 Y86.519 E1.24619
G1 X21.799 Y86.385 E.00718
M73 P3 R16
G1 X23.589 Y86.385 E.06803
G1 X23.723 Y86.519 E.0072
G1 X23.723 Y119.308 E1.24619
G1 X23.589 Y119.442 E.0072
M73 Q3 S17
G1 X22.402 Y119.442 E.04511
M204 P2000
G1 E-2.5 F4200
G1 X22.402 Y119.442 Z.4 F721
M486 S0
G1 X21.39 Y127.788 F24000
G1 Z.2 F720
G1 E2.5 F2400
M204 P500
;TYPE:Support material
G1 F1800
G3 X22.907 Y128.431 I-.548 J3.404 E.06323
G1 X22.041 Y128.431 E.03291
G1 X20.285 Y129.318 E.07477
G1 X19.851 Y130.641 E.05292
G1 X19.851 Y163.741 E1.25801
G1 X20.738 Y165.496 E.07474
G1 X22.061 Y165.931 E.05293
G1 X22.646 Y165.931 E.02223
G1 X22.057 Y166.271 E.02585
G1 X20.719 Y166.576 E.05216
G1 X19.352 Y166.474 E.0521
G1 X18.075 Y165.973 E.05214
G1 X17.002 Y165.118 E.05214
G1 X16.23 Y163.984 E.05214
G1 X15.825 Y162.674 E.05211
G1 X15.825 Y161.302 E.05214
G1 X15.918 Y161.002 E.01194
G3 X15.877 Y158.99 I5.187 J-1.112 E.07695
G1 X15.877 Y158.81 E.00684
G3 X14.306 Y157.185 I2.963 J-4.437 E.08656
G1 X13.814 Y155.998 E.04884
G1 X13.786 Y155.788 E.00805
G3 X12.043 Y154.706 I1.705 J-4.691 E.07853
G3 X10.601 Y151.224 I3.846 J-3.632 E.14645
G2 X10.246 Y148.884 I-3.165 J-.718 E.09208
G3 X10.246 Y146.335 I5.815 J-1.275 E.09763
G2 X10.272 Y145.894 I-.494 J-.25 E.01727
G3 X10.932 Y143.432 I5.947 J.274 E.09763
G1 X11.134 Y143.168 E.01263
G3 X11.804 Y140.631 I6.125 J.26 E.10051
G1 X12.586 Y139.611 E.04885
G1 X12.743 Y139.491 E.00751
G3 X14.194 Y135.942 I5.356 J.119 E.14903
G1 X14.375 Y135.803 E.00867
G3 X15.585 Y133.75 I5.302 J1.744 E.09127
G1 X15.989 Y133.44 E.01935
G1 X15.825 Y132.91 E.02109
G1 X15.825 Y131.538 E.05214
G1 X16.23 Y130.227 E.05215
G1 X17.002 Y129.094 E.05211
G1 X18.075 Y128.239 E.05214
G1 X19.352 Y127.738 E.05214
G1 X20.719 Y127.635 E.0521
G1 X21.323 Y127.773 E.02355
M204 P2000
G1 X21.323 Y127.773 F24000
G1 X21.146 Y128.653
M204 P500
G1 F1800
G1 X21.146 Y128.154 E.01897
G1 X20.575 Y128.058 E.02201
G1 X20.575 Y128.711 E.02482
G1 X20.003 Y129 E.02436
G1 X20.003 Y128.101 E.03417
G1 X19.432 Y128.148 E.02178
G1 X19.432 Y166.064 E1.44105
G1 X20.003 Y166.11 E.02177
G1 X20.003 Y164.955 E.0439
G1 X20.447 Y165.834 E.03743
G1 X20.575 Y165.876 E.00512
G1 X20.575 Y166.359 E.01836
M204 P2000
G1 X20.575 Y166.359 F24000
G1 X18.861 Y166.06
M204 P500
G1 F1800
G1 X18.861 Y128.372 E1.43238
G1 X18.289 Y128.596 E.02335
G1 X18.289 Y165.615 E1.40696
G1 X17.718 Y165.162 E.0277
G1 X17.718 Y129.049 E1.37252
G2 X17.147 Y129.613 I.91 J1.495 E.03078
M73 P4 R16
G1 X17.147 Y164.599 E1.32969
G1 X16.575 Y163.709 E.04021
M73 Q4 S17
G1 X16.575 Y130.502 E1.26208
G2 X16.237 Y132.848 I4.493 J1.846 E.091
G1 X16.466 Y133.593 E.02962
G1 X16.004 Y133.948 E.02214
G1 X16.004 Y158.389 E.92891
G1 X15.433 Y157.951 E.02735
G1 X15.433 Y134.625 E.88654
G2 X14.861 Y135.704 I2.318 J1.919 E.04674
G1 X14.861 Y157.234 E.81828
G3 X14.29 Y156.072 I3.062 J-2.228 E.04945
G1 X14.29 Y136.492 E.74416
G1 X13.718 Y137.295 E.03747
G1 X13.718 Y155.315 E.68487
G1 X13.147 Y155.035 E.02417
G1 X13.147 Y139.571 E.58773
G3 X12.88 Y139.905 I-.387 J-.036 E.01721
G1 X12.576 Y140.301 E.01897
G1 X12.576 Y154.597 E.54334
G3 X12.004 Y153.98 I1.21 J-1.695 E.0322
G1 X12.004 Y141.222 E.48488
G1 X11.713 Y141.926 E.02895
G1 X11.528 Y143.331 E.05386
G1 X11.433 Y143.454 E.00591
G1 X11.433 Y153.028 E.36387
G3 X11.117 Y150.459 I3.644 J-1.753 E.10014
G2 X10.862 Y149.294 I-3.232 J.096 E.04559
G1 X10.862 Y144.139 E.19592
M204 P2000
G1 E-2.5 F4200
G1 X10.862 Y144.139 Z.4 F721
G1 X22.94 Y131.52 F24000
G1 Z.2 F720
G1 E2.5 F2400
M204 P500
;TYPE:Perimeter
;WIDTH:0.364381
G1 F1800
G1 X23.261 Y131.52 E.00858
G1 X23.261 Y131.681 E.0043
G1 X23.261 Y162.842 E.83292
G1 X22.94 Y162.842 E.00858
M73 P5 R16
G1 X22.94 Y131.58 E.83562
M204 P2000
G1 X22.94 Y131.58 F24000
M73 Q5 S17
G1 X22.551 Y131.131
M204 P500
;TYPE:External perimeter
;WIDTH:0.499999
G1 F1800
G1 X23.651 Y131.131 E.04181
G1 X23.651 Y131.681 E.0209
G1 X23.651 Y163.231 E1.1991
G1 X22.551 Y163.231 E.04181
G1 X22.551 Y131.191 E1.21772
M204 P2000
G1 X22.946 Y131.132 F24000
M73 Q5 S16
G1 E-2.5 F4200
G1 Z.4 F720
M486 S-1
M486 S1
G1 X20.983 Y83.521 F24000
G1 Z.2 F720
G1 E2.5 F2400
M204 P500
;TYPE:Support material
;WIDTH:0.5
G1 F1800
G3 X22.5 Y84.164 I-.548 J3.403 E.06323
G1 X21.635 Y84.164 E.03288
G1 X19.879 Y85.051 E.07477
G1 X19.444 Y86.374 E.05293
G1 X19.444 Y119.473 E1.25797
G1 X20.331 Y121.229 E.07477
G1 X21.654 Y121.664 E.05293
G1 X22.239 Y121.664 E.02223
G1 X21.65 Y122.004 E.02585
G1 X20.313 Y122.309 E.05212
G1 X18.945 Y122.207 E.05214
G1 X17.668 Y121.706 E.05214
G1 X16.596 Y120.85 E.05214
G1 X15.823 Y119.717 E.05213
G1 X15.419 Y118.406 E.05214
G1 X15.419 Y117.035 E.05211
G1 X15.511 Y116.735 E.01193
G3 X15.47 Y114.723 I5.187 J-1.112 E.07695
G1 X15.47 Y114.543 E.00684
G3 X13.899 Y112.918 I2.964 J-4.437 E.08656
G1 X13.407 Y111.73 E.04887
G1 X13.38 Y111.521 E.00801
G3 X11.637 Y110.439 I1.705 J-4.691 E.07853
G3 X10.194 Y106.957 I3.846 J-3.633 E.14647
G2 X9.84 Y104.616 I-3.164 J-.718 E.09211
G3 X9.84 Y102.067 I5.815 J-1.274 E.09763
G2 X9.866 Y101.627 I-.494 J-.249 E.01723
G3 X10.525 Y99.165 I5.946 J.274 E.09762
G1 X10.728 Y98.901 E.01266
G3 X11.397 Y96.364 I6.125 J.26 E.1005
G1 X12.18 Y95.344 E.04887
G1 X12.336 Y95.224 E.00748
G3 X13.787 Y91.674 I5.357 J.118 E.14906
G1 X13.968 Y91.536 E.00865
G3 X15.179 Y89.483 I5.303 J1.743 E.09129
G1 X15.583 Y89.173 E.01935
G1 X15.419 Y88.642 E.02112
G1 X15.419 Y87.271 E.05211
G1 X15.823 Y85.96 E.05214
G1 X16.596 Y84.827 E.05213
G1 X17.668 Y83.971 E.05214
G1 X18.945 Y83.47 E.05214
G1 X20.313 Y83.368 E.05214
G1 X20.916 Y83.506 E.02351
M204 P2000
G1 X20.916 Y83.506 F24000
G1 X20.74 Y84.386
M204 P500
G1 F1800
G1 X20.74 Y83.887 E.01897
G1 X20.168 Y83.791 E.02204
G1 X20.168 Y84.444 E.02482
G1 X19.597 Y84.732 E.02431
G1 X19.597 Y83.834 E.03413
G1 X19.026 Y83.881 E.02178
G1 X19.026 Y121.796 E1.44101
G1 X19.597 Y121.843 E.02178
G1 X19.597 Y120.688 E.0439
G1 X20.041 Y121.567 E.03743
G1 X20.168 Y121.608 E.00507
G1 X20.168 Y122.092 E.0184
M204 P2000
G1 X20.168 Y122.092 F24000
G1 X18.454 Y121.793
M204 P500
G1 F1800
G1 X18.454 Y84.105 E1.43238
G1 X17.883 Y84.329 E.02331
M73 P6 R16
G1 X17.883 Y121.348 E1.40696
G1 X17.311 Y120.895 E.02773
M73 Q6 S16
G1 X17.311 Y84.782 E1.37252
G2 X16.74 Y85.345 I.91 J1.494 E.03075
G1 X16.74 Y120.332 E1.32973
G1 X16.169 Y119.442 E.04019
G1 X16.169 Y86.235 E1.26208
G2 X15.83 Y88.58 I4.493 J1.846 E.09097
G1 X16.06 Y89.325 E.02963
G1 X15.597 Y89.68 E.02217
G1 X15.597 Y114.122 E.92895
G1 X15.026 Y113.684 E.02735
G1 X15.026 Y90.358 E.88654
G2 X14.455 Y91.436 I2.319 J1.919 E.04669
G1 X14.455 Y112.967 E.81831
G3 X13.883 Y111.805 I3.061 J-2.228 E.04947
G1 X13.883 Y92.225 E.74416
G1 X13.312 Y93.028 E.03745
G1 X13.312 Y111.048 E.68487
G1 X12.741 Y110.768 E.02417
G1 X12.741 Y95.303 E.58777
G3 X12.473 Y95.637 I-.387 J-.035 E.01724
G1 X12.169 Y96.034 E.019
G1 X12.169 Y110.329 E.5433
G3 X11.598 Y109.713 I1.211 J-1.695 E.03214
M73 P7 R16
G1 X11.598 Y96.955 E.48488
G1 X11.306 Y97.659 E.02897
G1 X11.121 Y99.064 E.05386
G1 X11.027 Y99.187 E.00588
G1 X11.027 Y108.761 E.36387
G3 X10.71 Y106.192 I3.644 J-1.753 E.10014
G2 X10.455 Y105.027 I-3.231 J.096 E.04559
G1 X10.455 Y99.871 E.19596
M204 P2000
G1 E-2.5 F4200
G1 X10.455 Y99.871 Z.4 F721
G1 X22.533 Y87.253 F24000
G1 Z.2 F720
M73 Q7 S16
G1 E2.5 F2400
M204 P500
;TYPE:Perimeter
;WIDTH:0.364381
G1 F1800
G1 X22.855 Y87.253 E.00861
G1 X22.855 Y87.414 E.0043
G1 X22.855 Y118.575 E.83292
G1 X22.533 Y118.575 E.00861
G1 X22.533 Y87.313 E.83562
M204 P2000
G1 X22.533 Y87.313 F24000
G1 X22.144 Y86.864
M204 P500
;TYPE:External perimeter
;WIDTH:0.499999
G1 F1800
G1 X23.244 Y86.864 E.04181
G1 X23.244 Y87.414 E.0209
G1 X23.244 Y118.964 E1.1991
G1 X22.144 Y118.964 E.04181
G1 X22.144 Y86.924 E1.21772
M204 P2000
G1 X22.54 Y86.864 F24000
M106 S84.15
;LAYER_CHANGE
;Z:0.35
;HEIGHT:0.15
;BEFORE_LAYER_CHANGE
G92 E0.0
;0.35
M201 X3999.53 Y3999.53

G1 E-2.5 F4200
G1 Z.35 F720
;AFTER_LAYER_CHANGE
;0.35
M74 W0.206352

M104 S220 ; set temperature
G1 Z.55
M486 S-1
M486 S0
G1 X18.918 Y145.364 F24000
G1 Z.35 F720
G1 E2.5 F2400
;TYPE:Support material
;WIDTH:0.36
G1 F6000
G1 X18.351 Y145.423 E.01165
G3 X17.422 Y145.127 I-.248 J-.828 E.02117
G1 X16.337 Y145.221 E.02226
G1 X16.369 Y145.58 E.00737
G1 X17.313 Y145.498 E.01937
G2 X18.44 Y145.776 I.79 J-.779 E.02497
G1 X19.465 Y145.668 E.02107
G2 X19.529 Y146.753 I3.207 J.355 E.02233
G1 X19.777 Y147.118 E.00902
G1 X19.71 Y147.707 E.01212
G1 X19.398 Y148.948 E.02616
G2 X18.194 Y148.117 I-3.458 J3.719 E.03001
G2 X17.257 Y148.273 I-.269 J1.274 E.01988
G3 X16.005 Y148.216 I-.54 J-1.91 E.02607
G2 X15.981 Y147.167 I-1.518 J-.49 E.02186
G1 X16.066 Y146.523 E.01328
G2 X16.32 Y145.584 I-1.398 J-.881 E.02018
G1 X16.32 Y145.584 F24000
G1 X19.304 Y136.274
G1 F6000
G1 X19.744 Y135.836 E.01269
G3 X19.947 Y135.133 I1.047 J-.078 E.01528
G3 X20.293 Y135.024 I.294 J.327 E.00765
G1 X20.386 Y134.676 E.00736
G3 X20.765 Y136.058 I-.147 J.783 E.03641
G1 X20.401 Y136.296 E.00889
G2 X20.778 Y137.42 I1.629 J.079 E.0248
G3 X21.049 Y138.537 I-.406 J.69 E.02621
G1 X20.71 Y138.924 E.01052
G1 X20.712 Y139.61 E.01402
G3 X20.759 Y140.137 I-.645 J.324 E.01107
G1 X20.492 Y140.693 E.01261
G3 X20.921 Y141.472 I-.505 J.785 E.01895
G3 X21.046 Y142.49 I-.56 J.586 E.0227
G1 X20.763 Y142.818 E.00886
G1 X20.763 Y143.581 E.0156
G3 X21.049 Y144.777 I-.515 J.755 E.02757
G1 X20.718 Y145.155 E.01027
G2 X20.88 Y146.223 I1.412 J.332 E.02263
G3 X20.786 Y146.847 I-.753 J.205 E.01328
G1 X20.28 Y147.393 E.01522
G1 X20.837 Y147.988 E.01666
G2 X20.99 Y148.572 I.661 J.139 E.01279
G3 X20.893 Y149.236 I-.833 J.218 E.01409
G1 X20.486 Y149.704 E.01268
G2 X21.046 Y150.65 I2.905 J-1.082 E.02259
G3 X21.008 Y151.609 I-.767 J.45 E.02072
G2 X21.143 Y152.499 I1.359 J.25 E.01874
G3 X21.047 Y153.162 I-.831 J.219 E.01407
G1 X20.624 Y153.646 E.01314
G1 X20.929 Y154.377 E.01619
G3 X20.919 Y155.37 I-.629 J.491 E.02192
G2 X21.071 Y156.204 I1.564 J.145 E.01755
G3 X20.843 Y156.974 I-.716 J.206 E.01734
G1 X20.843 Y157.757 E.01601
G3 X21.071 Y158.527 I-.488 J.564 E.01734
G1 X20.877 Y158.929 E.00913
G3 X21.176 Y159.941 I-8.887 J3.171 E.02158
G3 X21.049 Y160.374 I-.969 J-.048 E.00931
G1 X20.52 Y160.979 E.01643
G3 X21.121 Y161.758 I-1.313 J1.637 E.0203
G3 X19.81 Y161.447 I-.745 J.225 E.06679
G2 X19.702 Y160.377 I-1.036 J-.436 E.02292
G3 X19.746 Y159.405 I.8 J-.452 E.02096
G1 X19.815 Y158.768 E.0131
G3 X19.913 Y157.712 I.627 J-.474 E.0238
G1 X19.913 Y157.019 E.01417
G3 X19.626 Y156.432 I1.023 J-.864 E.01349
G1 X19.486 Y156.118 E.00703
G1 X18.859 Y155.768 E.01468
G3 X17.648 Y154.145 I-.277 J-1.057 E.053
G1 X17.345 Y153.4 E.01644
G3 X16.587 Y152.75 I.337 J-1.159 E.02105
