; generated by PrusaSlicer 2.9.1 on 2025-03-22 at 08:59:57 UTC


;
;

;
;

;
;

;
;
; 

; external perimeters extrusion width = 0.45mm
; perimeters extrusion width = 0.45mm
; infill extrusion width = 0.45mm
; solid infill extrusion width = 0.45mm
; top infill extrusion width = 0.42mm
; first layer extrusion width = 0.50mm

M73 P0 R11
M73 Q0 S11
M201 X4000 Y4000 Z400 E5000 ; sets maximum accelerations, mm/sec^2
M203 X400 Y400 Z12 E80 ; sets maximum feedrates, mm / sec
M204 P4000 R1250 T4000 ; sets acceleration (P, T) and retract acceleration (R), mm/sec^2
M205 X8.00 Y8.00 Z2.00 E10.00 ; sets the jerk limits, mm/sec
M205 S0 T0 ; sets the minimum extruding and travel feed rate, mm/sec

M486 S0
M486 Aheater_enclosure-heater_enclosurecable_clamp.stl
M486 S-1

;TYPE:Custom
M862.3 P "MINI" ; printer model check
M862.1 P0.4 A0 F0 ; nozzle check
M862.5 P2 ; g-code level check
M862.6 P"Input shaper" ; FW feature check
M115 U6.1.2+7894
G90 ; use absolute coordinates
M83 ; extruder relative mode
M104 S170 ; set extruder temp for bed leveling
M140 S60 ; set bed temp
M109 R170 ; wait for bed leveling temp
M190 S60 ; wait for bed temp
M569 S1 X Y ; set stealthchop for X Y
M204 T1250 ; set travel acceleration
G28 ; home all without mesh bed level
G29 ; mesh bed leveling 
M104 S230 ; set extruder temp
G92 E0

G1 X0 Y-2 Z3 F2400

M109 S230 ; wait for extruder temp

; intro line
G1 X10 Z0.2 F1000
G1 X70 E8 F900
G1 X140 E10 F700
G92 E0

M569 S0 X Y ; set spreadcycle for X Y
M204 T4000 ; restore travel acceleration
M572 W0.06 ; set smooth time
M221 S95 ; set flow
G21 ; set units to millimeters
G90 ; use absolute coordinates
M83 ; use relative distances for extrusion
M572 S0.27
M107
;LAYER_CHANGE
;Z:0.2
;HEIGHT:0.2
G1 E-2.5 F4200
M73 P1 R10
M73 Q1 S11
G1 Z.4 F720
M486 S0
G1 X52.365 Y40.224 F24000
G1 Z.2 F720
G1 E2.5 F2400
M204 P500
;TYPE:External perimeter
;WIDTH:0.499999
G1 F900
G1 X52.451 Y40.261 E.00356
G1 X55.614 Y40.261 E.12021
G1 X55.953 Y40.297 E.01296
G1 X55.962 Y44.161 E.14686
G1 X52.413 Y44.161 E.13488
G2 X51.424 Y41.759 I-6.809 J1.399 E.09931
G2 X49.511 Y39.826 I-6.197 J4.221 E.10394
G2 X47.662 Y38.947 I-4.099 J6.233 E.07806
G2 X45.636 Y38.647 I-2.2 J7.872 E.07805
G2 X44.14 Y38.819 I.157 J7.966 E.05732
G2 X42.972 Y39.186 I1.685 J7.405 E.04658
G1 X42.152 Y39.597 E.03486
G2 X40.492 Y40.952 I3.778 J6.323 E.08173
G2 X39.115 Y43.291 I5.407 J4.76 E.10378
M73 P2 R10
M73 Q2 S11
G1 X38.878 Y44.161 E.03427
G1 X35.333 Y44.161 E.13473
G1 X35.339 Y40.307 E.14648
G1 X35.659 Y40.261 E.01229
G1 X38.843 Y40.261 E.12101
G1 X39.015 Y40.184 E.00716
G3 X40.032 Y39.132 I8.33 J7.039 E.05565
G1 X40.863 Y38.492 E.03986
G3 X43.762 Y37.236 I4.942 J7.433 E.12071
G3 X46.279 Y37.049 I1.923 J8.827 E.09624
G1 X47.118 Y37.153 E.03213
G1 X48.152 Y37.401 E.04041
G3 X50.936 Y38.86 I-2.688 J8.513 E.12008
G1 X51.573 Y39.416 E.03214
G1 X52.283 Y40.188 E.03986
G1 X52.311 Y40.199 E.00114
M204 P2000
G1 X52.707 Y40.254 F24000
M204 T4000
G1 X52.175 Y40.644
M204 P500
;TYPE:Perimeter
;WIDTH:0.590358
G1 F900
G1 X52.279 Y40.672 E.0049
;WIDTH:0.545179
G1 X52.451 Y40.718 E.00744
;WIDTH:0.499999
G1 X55.5 Y40.718 E.11588
G1 X55.505 Y43.704 E.11349
G1 X52.776 Y43.704 E.10372
G2 X51.791 Y41.487 I-7.223 J1.881 E.09261
;WIDTH:0.545179
G1 X51.691 Y41.315 E.00831
;WIDTH:0.590358
G1 X51.592 Y41.144 E.00899
;WIDTH:0.635537
G2 X51.341 Y40.785 I-1.535 J.806 E.02164
;WIDTH:0.627399
G1 X50.807 Y40.215 E.03796
;WIDTH:0.627701
G2 X49.779 Y39.382 I-6.584 J7.078 E.06439
;WIDTH:0.62379
G2 X47.789 Y38.444 I-4.374 J6.698 E.1066
;WIDTH:0.627348
G1 X46.929 Y38.243 E.04292
;WIDTH:0.627722
G1 X46.198 Y38.152 E.03582
;WIDTH:0.628738
G1 X45.289 Y38.142 E.04428
G2 X44.013 Y38.314 I.635 J9.558 E.06276
;WIDTH:0.627724
G1 X43.442 Y38.463 E.0287
;WIDTH:0.624219
G1 X42.739 Y38.721 E.0362
G1 X41.867 Y39.165 E.0473
;WIDTH:0.621468
G1 X41.169 Y39.633 E.04043
;WIDTH:0.621083
G1 X40.604 Y40.102 E.0353
;WIDTH:0.623284
G1 X40.09 Y40.625 E.03539
;WIDTH:0.637919
G1 X39.764 Y41.015 E.02515
G1 X39.713 Y41.116 E.0056
;WIDTH:0.592576
G1 X39.662 Y41.218 E.00521
;WIDTH:0.547233
G1 X39.283 Y41.841 E.03058
;WIDTH:0.499999
G2 X38.516 Y43.704 I6.727 J3.858 E.07679
M73 Q2 S10
G1 X35.79 Y43.704 E.10361
G1 X35.795 Y40.718 E.11349
G1 X38.745 Y40.718 E.11212
;WIDTH:0.542438
G1 X38.991 Y40.682 E.01033
;WIDTH:0.584877
G1 X39.237 Y40.645 E.01121
;WIDTH:0.630403
G1 X39.407 Y40.528 E.01008
G1 X39.809 Y40.07 E.02977
;WIDTH:0.627314
G1 X40.385 Y39.517 E.0388
;WIDTH:0.629937
G1 X41.173 Y38.915 E.0484
;WIDTH:0.63034
G3 X42.623 Y38.141 I5.317 J8.221 E.08038
;WIDTH:0.624311
G3 X44.129 Y37.695 I3.39 J8.677 E.07602
;WIDTH:0.622742
G1 X44.908 Y37.587 E.03792
;WIDTH:0.625384
G1 X45.721 Y37.547 E.03942
G1 X46.498 Y37.598 E.03771
;WIDTH:0.620957
G1 X47.284 Y37.724 E.03826
;WIDTH:0.623969
G3 X49.514 Y38.542 I-1.703 J8.092 E.11516
;WIDTH:0.624572
G3 X50.812 Y39.439 I-4.44 J7.814 E.07641
;WIDTH:0.620931
G1 X51.389 Y39.98 E.03801
;WIDTH:0.635537
G1 X51.934 Y40.58 E.03994
G1 X52.106 Y40.626 E.00877
;WIDTH:0.590358
G1 X52.117 Y40.629 E.00052
M204 P2000
G1 E-2.5 F4200
G1 Z.4 F720
G1 X38.174 Y43.247 F24000
G1 Z.2 F720
G1 E2.5 F2400
M204 P500
;WIDTH:0.499999
G1 F900
G1 X36.248 Y43.247 E.0732
G1 X36.252 Y41.175 E.07875
G1 X38.745 Y41.175 E.09475
G1 X39.232 Y41.082 E.01884
G1 X38.879 Y41.628 E.02471
G1 X38.407 Y42.601 E.0411
G1 X38.195 Y43.19 E.02379
M204 P2000
G1 E-2.5 F4200
G1 Z.4 F720
G1 X52.048 Y41.066 F24000
G1 Z.2 F720
M73 Q3 S10
G1 E2.5 F2400
M204 P500
G1 F900
M73 P3 R10
G2 X52.451 Y41.175 I.375 J-.587 E.01611
G1 X55.043 Y41.175 E.09851
G1 X55.047 Y43.247 E.07875
G1 X53.124 Y43.247 E.07309
G2 X52.561 Y41.888 I-8.675 J2.797 E.05597
G1 X52.079 Y41.117 E.03456
M204 P2000
G1 E-2.5 F4200
G1 Z.4 F720
G1 X54.862 Y42.333 F24000
G1 Z.2 F720
G1 E2.5 F2400
M204 P500
;TYPE:Solid infill
;WIDTH:0.523308
G1 F900
G1 X54.093 Y41.564 E.04344
G1 X53.414 Y41.564 E.02712
G1 X54.657 Y42.808 E.07025
G1 X54.658 Y42.858 E.002
G1 X54.029 Y42.858 E.02513
G1 X52.529 Y41.358 E.08473
M204 P2000
G1 E-2.5 F4200
G1 Z.4 F720
G1 X37.831 Y41.358 F24000
G1 Z.2 F720
G1 E2.5 F2400
M204 P500
;WIDTH:0.538023
G1 F900
G1 X38.327 Y41.855 E.02891
G2 X38.099 Y42.327 I3.017 J1.75 E.0216
G1 X37.336 Y41.564 E.04442
G1 X36.64 Y41.564 E.02865
G1 X37.899 Y42.827 E.07342
G1 X37.888 Y42.858 E.00135
G1 X37.23 Y42.858 E.02709
G1 X36.433 Y42.061 E.0464
M204 P2000
M106 S84.15
;LAYER_CHANGE
;Z:0.35
;HEIGHT:0.15
;BEFORE_LAYER_CHANGE
G92 E0.0
;0.35
M201 X3999.96 Y3999.96

G1 E-2.5 F4200
G1 Z.35 F720
;AFTER_LAYER_CHANGE
;0.35
M74 W0.0169337

M104 S220 ; set temperature
G1 Z.55
G1 X52.536 Y39.856 F24000
G1 Z.35 F720
G1 E2.5 F2400
M204 P1500
;TYPE:External perimeter
;WIDTH:0.449999
G1 F1426
G1 X52.614 Y39.89 E.00222
G1 X55.841 Y39.896 E.08408
G1 X56.308 Y39.956 E.01227
G1 X56.355 Y39.962 E.00123
G1 F979.565
G1 X56.604 Y40.06 E.00697
G1 F966.633
G1 X56.61 Y40.066 E.00022
;TYPE:Overhang perimeter
G1 F900
G1 X56.672 Y40.132 E.00236
G1 X56.676 Y40.173 E.00107
G1 X56.676 Y41.335 E.03028
G1 X56.676 Y43.223 E.04919
G1 X56.676 Y44.386 E.0303
G1 X56.613 Y44.386 E.00164
;TYPE:External perimeter
G1 F966.666
G1 X55.513 Y44.386 E.02866
G1 F1426
G1 X52.901 Y44.386 E.06806
G1 F1037.758
G1 X51.828 Y44.386 E.02796
G1 X51.602 Y43.494 E.02398
G1 F1065.329
G1 X51.368 Y42.916 E.01625
G1 X51.078 Y42.363 E.01627
G1 X50.735 Y41.842 E.01625
G1 X50.342 Y41.357 E.01626
G1 F1064.774
G1 X49.899 Y40.91 E.0164
G1 X49.164 Y40.332 E.02436
G1 F1029.332
G2 X48.08 Y39.756 I-5.923 J9.833 E.032
G1 F1031.518
G2 X46.755 Y39.363 I-3.399 J9.025 E.03604
G1 F1056.874
G1 X46.133 Y39.284 E.01634
G1 F1031.497
G2 X44.707 Y39.331 I-.366 J10.536 E.0372
G1 F1065.324
G2 X43.498 Y39.638 I1.266 J7.505 E.03254
G1 X42.651 Y40.018 E.02419
G2 X41.621 Y40.714 I3.752 J6.665 E.03243
G1 X41.162 Y41.134 E.01621
G1 F1064.781
G1 X40.745 Y41.602 E.01633
G1 F1062.8
G1 X40.198 Y42.398 E.02517
G1 F1060.443
G1 X39.899 Y42.984 E.01714
G1 X39.694 Y43.493 E.0143
G1 F1052.878
G1 X39.459 Y44.386 E.02406
G1 X38.391 Y44.386 E.02783
G1 F1426
G1 X35.782 Y44.386 E.06798
G1 F966.666
G1 X34.682 Y44.386 E.02866
;TYPE:Overhang perimeter
G1 F900
G1 X34.619 Y44.386 E.00164
G1 X34.619 Y40.703 E.09596
G1 X34.626 Y40.121 E.01517
G1 X34.684 Y40.084 E.00179
;TYPE:External perimeter
G1 F966.665
G1 X34.806 Y40.006 E.00377
G1 F1229.889
G1 X34.958 Y39.977 E.00403
G1 F1426
G1 X35.389 Y39.897 E.01142
G1 X38.68 Y39.89 E.08575
G1 X38.832 Y39.824 E.00432
G1 X39.465 Y39.148 E.02413
G1 X39.947 Y38.716 E.01686
G1 X40.654 Y38.185 E.02304
G1 X41.41 Y37.726 E.02304
G1 X42.009 Y37.431 E.0174
G1 X42.616 Y37.185 E.01707
G1 X43.461 Y36.926 E.02303
G1 X44.327 Y36.752 E.02302
G1 X45.208 Y36.665 E.02307
G1 X45.788 Y36.655 E.01511
G3 X47.182 Y36.787 I-.349 J11.149 E.03651
G1 X48.26 Y37.046 E.02889
G1 X49.089 Y37.346 E.02297
G3 X51.166 Y38.569 I-3.841 J8.897 E.06297
G1 X51.831 Y39.149 E.02299
G1 X52.463 Y39.824 E.02409
G1 X52.481 Y39.831 E.0005
M204 P2000
G1 X52.877 Y39.884 F24000
G1 X52.364 Y40.235
;TYPE:Perimeter
G1 F1426
G1 X52.61 Y40.307 E.00668
G1 X55.84 Y40.314 E.08416
G1 X56.258 Y40.37 E.01099
G1 X56.258 Y43.968 E.09375
G1 X55.513 Y43.968 E.01941
G1 X52.821 Y43.968 E.07014
G1 X52.154 Y43.968 E.01738
G1 X51.99 Y43.338 E.01696
G1 X51.738 Y42.722 E.01734
G1 X51.428 Y42.134 E.01732
G1 X51.06 Y41.579 E.01735
G1 X50.64 Y41.064 E.01732
G1 X50.216 Y40.634 E.01573
G1 X49.793 Y40.294 E.01414
G1 X49.371 Y39.97 E.01386
G2 X48.242 Y39.371 I-6.176 J10.286 E.03332
G2 X46.817 Y38.95 I-3.571 J9.458 E.03875
G1 X46.153 Y38.866 E.01744
G2 X44.625 Y38.921 I-.375 J10.892 E.03987
G1 X43.975 Y39.054 E.01729
M73 Q4 S10
G1 X43.399 Y39.23 E.01569
G1 X42.435 Y39.66 E.0275
M73 P4 R10
G2 X41.339 Y40.405 I4.022 J7.095 E.03457
G1 X40.851 Y40.855 E.0173
G1 X40.402 Y41.363 E.01767
G1 X39.828 Y42.204 E.02653
G1 X39.512 Y42.827 E.0182
G1 X39.293 Y43.374 E.01535
G1 X39.118 Y43.968 E.01613
G1 X38.473 Y43.968 E.01681
G1 X35.782 Y43.968 E.07012
G1 X35.037 Y43.968 E.01941
G1 X35.037 Y40.377 E.09357
G1 X35.408 Y40.314 E.00981
G1 X38.117 Y40.309 E.07059
G1 X38.77 Y40.301 E.01702
G1 X39.137 Y40.109 E.01079
G1 X39.757 Y39.447 E.02363
G1 X40.212 Y39.039 E.01592
G1 X40.888 Y38.531 E.02203
G1 X41.611 Y38.093 E.02203
G1 X42.18 Y37.812 E.01654
G1 X42.756 Y37.58 E.01618
G1 X43.564 Y37.332 E.02202
G1 X44.389 Y37.166 E.02193
G1 X45.232 Y37.082 E.02207
G1 X45.756 Y37.074 E.01365
G3 X47.107 Y37.199 I-.274 J10.337 E.03538
G1 X48.14 Y37.447 E.02768
G1 X48.928 Y37.731 E.02182
G3 X50.905 Y38.895 I-3.664 J8.486 E.05993
G1 X51.541 Y39.45 E.02199
G1 X51.909 Y39.843 E.01403
G1 X52.28 Y40.21 E.0136
G1 X52.306 Y40.218 E.00071
G1 X52.189 Y40.624 F24000
G1 F1426
G1 X52.606 Y40.725 E.01118
G1 X54.432 Y40.729 E.04758
G1 X55.839 Y40.733 E.03666
G1 X55.84 Y42.14 E.03666
G1 X55.84 Y43.55 E.03674
G1 X52.48 Y43.55 E.08755
G1 X52.377 Y43.183 E.00993
G1 X52.109 Y42.529 E.01842
G1 X51.777 Y41.905 E.01842
G1 X51.385 Y41.317 E.01841
G1 X50.937 Y40.77 E.01842
G1 X50.457 Y40.287 E.01774
G1 X50.052 Y39.966 E.01347
G2 X49.027 Y39.291 I-3.676 J4.466 E.03204
G1 X48.403 Y38.985 E.01811
G2 X46.879 Y38.537 I-3.743 J9.898 E.04143
G1 X46.174 Y38.449 E.01851
G2 X44.543 Y38.511 I-.386 J11.277 E.04256
G1 X43.853 Y38.655 E.01837
G1 X43.216 Y38.851 E.01737
G1 X42.739 Y39.062 E.01359
G1 X42.219 Y39.303 E.01493
G2 X41.057 Y40.097 I4.292 J7.524 E.03671
G1 X40.54 Y40.576 E.01836
G1 X40.059 Y41.125 E.01902
G1 X39.459 Y42.009 E.02784
G1 X39.125 Y42.67 E.0193
G1 X38.805 Y43.55 E.0244
G1 X35.455 Y43.55 E.08729
G1 X35.455 Y40.732 E.07343
G1 X38.118 Y40.726 E.06939
G1 X38.831 Y40.714 E.01858
G1 X39.352 Y40.48 E.01488
G1 X39.447 Y40.389 E.00343
G1 X40.065 Y39.732 E.0235
G1 X40.578 Y39.287 E.01769
G1 X41.222 Y38.817 E.02077
G1 X41.884 Y38.424 E.02006
G1 X42.367 Y38.187 E.01402
G1 X43.005 Y37.94 E.01783
G1 X43.77 Y37.717 E.02076
G1 X44.59 Y37.566 E.02172
G1 X45.715 Y37.492 E.02938
G3 X47.032 Y37.611 I-.191 J9.531 E.03448
G1 X48.02 Y37.847 E.02647
G1 X48.766 Y38.117 E.02067
G3 X50.644 Y39.222 I-3.486 J8.073 E.05692
G1 X51.25 Y39.751 E.02096
G1 X51.853 Y40.395 E.02299
G1 X52.134 Y40.604 E.00912
G1 E-2.5 F4200
G1 Z.55 F720
G1 X45.784 Y37.801 F24000
G1 Z.35 F720
G1 E2.5 F2400
M204 P3000
;TYPE:Solid infill
;WIDTH:0.355559
G1 F1426
G1 X46.463 Y37.858 E.01374
;WIDTH:0.347381
G1 X47.293 Y37.986 E.01651
;WIDTH:0.362255
G3 X49.347 Y38.741 I-1.665 J7.697 E.04519
G1 X50.049 Y39.166 E.01689
;WIDTH:0.363454
G3 X51.042 Y39.978 I-6.791 J9.316 E.02651
;WIDTH:0.366548
G1 X51.712 Y40.693 E.02043
;WIDTH:0.408274
G1 X51.87 Y40.819 E.00474
;WIDTH:0.449999
G1 X52.028 Y40.946 E.00528
G1 X52.606 Y41.08 E.01546
G1 X55.485 Y41.086 E.07501
G1 X55.485 Y43.195 E.05495
G1 X52.74 Y43.195 E.07152
G1 X52.422 Y42.361 E.02326
G2 X51.79 Y41.286 I-7.149 J3.474 E.03253
G1 X51.651 Y41.127 E.0055
;WIDTH:0.413465
G1 X51.512 Y40.968 E.00502
;WIDTH:0.37693
G1 X51.175 Y40.577 E.0111
;WIDTH:0.350711
G1 X50.719 Y40.115 E.01289
;WIDTH:0.363454
G1 X49.837 Y39.41 E.02333
;WIDTH:0.362215
G2 X48.521 Y38.701 I-6.631 J10.739 E.03078
G2 X46.927 Y38.237 I-3.855 J10.28 E.0342
;WIDTH:0.357904
G1 X46.406 Y38.163 E.01069
;WIDTH:0.355559
G1 X45.761 Y38.123 E.01303
;WIDTH:0.361194
G2 X44.536 Y38.202 I.386 J15.606 E.02519
;WIDTH:0.352394
G1 X43.814 Y38.347 E.01471
;WIDTH:0.355782
G1 X43.117 Y38.565 E.01474
;WIDTH:0.363569
G1 X42.121 Y39.008 E.02253
;WIDTH:0.354281
G1 X41.432 Y39.428 E.01621
;WIDTH:0.352899
G2 X40.398 Y40.286 I4.931 J6.994 E.0269
;WIDTH:0.39244
G1 X39.74 Y41.013 E.02203
;WIDTH:0.42122
G1 X39.539 Y41.276 E.00803
;WIDTH:0.449999
G2 X39.148 Y41.856 I2.94 J2.407 E.01825
G2 X38.542 Y43.195 I7.058 J3.996 E.03835
G1 X35.81 Y43.195 E.07118
G1 X35.81 Y41.086 E.05495
G2 X38.931 Y41.05 I.782 J-66.384 E.08133
G1 X39.227 Y40.901 E.00863
;WIDTH:0.42122
G1 X39.524 Y40.752 E.00806
;WIDTH:0.39244
G1 X39.604 Y40.664 E.00267
;WIDTH:0.362405
G1 X40.269 Y39.962 E.01991
;WIDTH:0.355324
G1 X40.694 Y39.583 E.01148
;WIDTH:0.35416
G3 X42.021 Y38.698 I5.877 J7.371 E.03207
;WIDTH:0.363569
G3 X43.096 Y38.232 I4.819 J9.65 E.02423
;WIDTH:0.352346
G3 X44.528 Y37.88 I2.874 J8.599 E.02947
;WIDTH:0.361194
G3 X45.575 Y37.805 I1.247 J10.022 E.02155
M204 P2000
G1 E-2.5 F4200
G1 Z.55 F720
G1 X38.871 Y41.486 F24000
G1 Z.35 F720
G1 E2.5 F2400
M204 P3000
;WIDTH:0.449999
G1 F1426
G1 X38.779 Y41.66 E.00513
G2 X38.247 Y42.778 I6.816 J3.929 E.03229
G1 X36.228 Y42.778 E.05261
G1 X36.228 Y41.503 E.03322
G1 X38.662 Y41.489 E.06342
G1 X38.159 Y41.923 E.01731
M73 P5 R10
M73 Q5 S10
;WIDTH:0.462036
G1 X37.961 Y42.354 E.01271
G1 X36.651 Y42.354 E.03512
;WIDTH:0.461044
G1 X36.651 Y41.926 E.01145
G1 X36.865 Y41.925 E.00572
;WIDTH:0.461876
G1 X37.95 Y41.923 E.02907
M204 P2000
G1 E-2.5 F4200
G1 Z.55 F720
G1 X52.421 Y41.473 F24000
G1 Z.35 F720
G1 E2.5 F2400
M204 P3000
;WIDTH:0.449999
G1 F1426
G1 X52.605 Y41.498 E.00484
G1 X55.067 Y41.503 E.06415
G1 X55.067 Y42.778 E.03322
G1 X53.028 Y42.778 E.05313
G2 X52.519 Y41.658 I-5.874 J1.995 E.03211
G1 X53.142 Y41.923 E.01764
;WIDTH:0.462048
G1 X54.644 Y41.926 E.04026
;WIDTH:0.461044
G1 X54.644 Y42.354 E.01145
;WIDTH:0.462048
G1 X53.321 Y42.354 E.03547
G1 X53.222 Y42.116 E.00691
M204 P2000
M106 S170.85
;LAYER_CHANGE
;Z:0.5
;HEIGHT:0.15
;BEFORE_LAYER_CHANGE
G92 E0.0
;0.5
M201 X3999.92 Y3999.92

G1 E-2.5 F4200
G1 Z.5 F720
;AFTER_LAYER_CHANGE
;0.5
M74 W0.0352375

G1 Z.7
G1 X52.558 Y39.807 F24000
G1 Z.5 F720
G1 E2.5 F2400
M204 P1500
;TYPE:External perimeter
;WIDTH:0.449999
G1 F1375
G1 X52.638 Y39.842 E.00228
G1 X54.689 Y39.842 E.05344
G1 X55.659 Y39.842 E.02527
G1 X56.566 Y39.906 E.02369
G1 X56.83 Y40.001 E.00731
G1 X56.896 Y40.066 E.00241
G1 F1346.698
G1 X56.958 Y40.128 E.00228
G1 F1337.754
G1 X56.962 Y40.201 E.0019
G1 X56.962 Y44.386 E.10904
G1 X56.001 Y44.386 E.02504
G1 F1375
G1 X52.509 Y44.386 E.09099
G1 X51.603 Y44.386 E.02361
G1 X51.407 Y43.623 E.02053
G1 X51.393 Y43.567 E.0015
G1 X51.167 Y43.008 E.01571
G1 X50.888 Y42.475 E.01568
G1 X50.556 Y41.972 E.0157
G1 X50.174 Y41.501 E.0158
G1 X49.527 Y40.879 E.02338
G2 X47.418 Y39.745 I-4.001 J4.91 E.06277
G2 X46.118 Y39.504 I-2.071 J7.558 E.03449
G1 X46.105 Y39.504 E.00034
G2 X44.81 Y39.544 I-.354 J9.515 E.03378
G1 X44.74 Y39.549 E.00183
G2 X43.577 Y39.844 I1.228 J7.279 E.0313
G1 X43.522 Y39.87 E.00159
