; generated by PrusaSlicer 2.9.1 on 2025-03-22 at 18:42:49 UTC


;
;

;
;

;
;

;
;
; 

; external perimeters extrusion width = 0.45mm
; perimeters extrusion width = 0.45mm
; infill extrusion width = 0.45mm
; solid infill extrusion width = 0.45mm
; top infill extrusion width = 0.42mm
; first layer extrusion width = 0.50mm

M73 P0 R97
M73 Q0 S101
M201 X4000 Y4000 Z400 E5000 ; sets maximum accelerations, mm/sec^2
M203 X400 Y400 Z12 E80 ; sets maximum feedrates, mm / sec
M204 P4000 R1250 T4000 ; sets acceleration (P, T) and retract acceleration (R), mm/sec^2
M205 X8.00 Y8.00 Z2.00 E10.00 ; sets the jerk limits, mm/sec
M205 S0 T0 ; sets the minimum extruding and travel feed rate, mm/sec

M486 S0
M486 Aheater_enclosure-heater_enclosuremount_bracket.stl (Instance 1)
M486 S-1
M486 S1
M486 Aheater_enclosure-heater_enclosuremount_bracket.stl (Instance 2)
M486 S-1
M486 S2
M486 Aheater_enclosure-heater_enclosuremount_bracket.stl (Instance 3)
M486 S-1

;TYPE:Custom
M862.3 P "MINI" ; printer model check
M862.1 P0.4 A0 F0 ; nozzle check
M862.5 P2 ; g-code level check
M862.6 P"Input shaper" ; FW feature check
M115 U6.1.2+7894
G90 ; use absolute coordinates
M83 ; extruder relative mode
M104 S170 ; set extruder temp for bed leveling
M140 S100 ; set bed temp
M109 R170 ; wait for bed leveling temp
M190 S100 ; wait for bed temp
M569 S1 X Y ; set stealthchop for X Y
M204 T1250 ; set travel acceleration
G28 ; home all without mesh bed level
G29 ; mesh bed leveling 
M104 S260 ; set extruder temp
G92 E0

G1 X0 Y-2 Z3 F2400

M109 S260 ; wait for extruder temp

; intro line
G1 X10 Z0.2 F1000
G1 X70 E8 F900
G1 X140 E10 F700
G92 E0

M569 S0 X Y ; set spreadcycle for X Y
M204 T4000 ; restore travel acceleration
M572 W0.06 ; set smooth time
M221 S95 ; set flow
G21 ; set units to millimeters
G90 ; use absolute coordinates
M83 ; use relative distances for extrusion
M572 S0.19
M107
;LAYER_CHANGE
;Z:0.2
;HEIGHT:0.2
G1 E-2.5 F4200
G1 Z.4 F720
G1 X49.054 Y28.236 F24000
G1 Z.2 F720
G1 E2.5 F2400
M204 P500
;TYPE:Skirt/Brim
;WIDTH:0.5
G1 F1800
G3 X49.141 Y28.097 I1.994 J1.148 E.00623
G3 X50.507 Y27.056 I2.395 J1.724 E.06623
G1 X50.904 Y26.981 E.01536
G1 X70.73 Y26.985 E.75351
G3 X71.747 Y27.39 I-.312 J2.264 E.04201
G3 X72.75 Y28.726 I-1.731 J2.343 E.0644
G1 X72.825 Y29.123 E.01536
G1 X72.825 Y66.979 E1.43877
G1 X100.113 Y66.981 E1.03712
G3 X101.145 Y67.361 I-.251 J2.271 E.04221
G3 X102.186 Y68.726 I-1.724 J2.393 E.0662
G1 X102.261 Y69.124 E.01539
G1 X102.248 Y73.114 E.15165
G3 X100.512 Y75.072 I-2.506 J-.474 E.10443
M73 Q0 S100
G1 X67.503 Y80.98 E1.27449
G3 X58.988 Y75.155 I-.982 J-7.7 E.42888
G1 X48.802 Y33.669 E1.62356
G1 X48.761 Y29.134 E.17237
G3 X49.025 Y28.289 I2.287 J.25 E.03386
M204 P2000
M204 T4000
G1 X49.426 Y28.507 F24000
M204 P500
G1 F1800
G3 X49.517 Y28.359 I1.588 J.868 E.00661
G3 X50.62 Y27.499 I2.006 J1.437 E.0539
G1 X50.928 Y27.438 E.01193
G1 X70.704 Y27.442 E.75161
G3 X71.447 Y27.736 I-.279 J1.793 E.03062
G3 X72.307 Y28.839 I-1.437 J2.006 E.0539
G1 X72.368 Y29.147 E.01193
G1 X72.368 Y67.436 E1.45522
G1 X100.096 Y67.438 E1.05384
G3 X100.883 Y67.736 I-.232 J1.798 E.03228
G3 X101.742 Y68.839 I-1.437 J2.005 E.05387
G1 X101.803 Y69.147 E.01193
G1 X101.796 Y73.044 E.14811
G3 X100.411 Y74.626 I-2.052 J-.399 E.08373
G1 X67.434 Y80.528 E1.27325
G3 X59.431 Y75.043 I-.914 J-7.247 E.40328
G1 X49.252 Y33.587 E1.62239
G1 X49.218 Y29.15 E.16864
G3 X49.398 Y28.561 I1.796 J.225 E.02352
M204 P2000
G1 X49.809 Y28.776 F24000
M204 P500
G1 F1800
G3 X50.775 Y27.93 I1.578 J.827 E.04993
G1 X50.95 Y27.895 E.00678
G1 X70.678 Y27.899 E.74979
G1 X70.81 Y27.929 E.00514
G3 X71.876 Y28.993 I-.62 J1.686 E.05907
G1 X71.911 Y29.169 E.00682
G1 X71.911 Y67.893 E1.47176
G1 X100.209 Y67.918 E1.0755
G3 X101.311 Y68.993 I-.571 J1.688 E.0605
G1 X101.346 Y69.169 E.00682
G1 X101.343 Y72.978 E.14477
G3 X100.311 Y74.179 I-1.605 J-.336 E.06281
G1 X67.365 Y80.076 E1.27206
G3 X59.875 Y74.931 I-.845 J-6.795 E.37763
G1 X49.703 Y33.504 E1.62126
G1 X49.699 Y29.034 E.16989
G3 X49.782 Y28.829 I1.688 J.569 E.00841
M204 P2000
G1 X50.197 Y29.022 F24000
M204 P500
G1 F1800
G3 X50.929 Y28.361 I1.144 J.53 E.03851
G1 X70.614 Y28.352 E.74815
G3 X71.445 Y29.148 I-.361 J1.209 E.04541
G1 X71.454 Y68.35 E1.48992
G1 X100.049 Y68.352 E1.08679
G3 X100.881 Y69.148 I-.36 J1.209 E.04544
M73 P0 R96
G1 X100.89 Y72.921 E.1434
G3 X100.21 Y73.733 I-1.184 J-.3 E.04163
G1 X67.296 Y79.624 E1.27082
G3 X60.318 Y74.819 I-.777 J-6.342 E.35203
G1 X50.153 Y33.421 E1.62012
G1 X50.133 Y29.193 E.16069
G3 X50.173 Y29.077 I1.208 J.359 E.00467
M204 P2000
G1 X50.59 Y29.26 F24000
M204 P500
G1 F1800
G3 X51.041 Y28.809 I.945 J.494 E.02462
G1 X70.546 Y28.809 E.74131
G1 X70.63 Y28.844 E.00346
G1 X70.997 Y29.26 E.02108
G1 X70.997 Y68.263 E1.48236
G2 X71.492 Y68.808 I.529 J.016 E.03094
G1 X99.981 Y68.809 E1.08276
G3 X100.432 Y69.26 I-.495 J.946 E.02462
G1 X100.432 Y72.861 E.13686
G1 X100.071 Y73.294 E.02143
G1 X67.249 Y79.169 E1.26727
G3 X60.761 Y74.707 I-.73 J-5.886 E.32726
G1 X50.603 Y33.339 E1.61895
G1 X50.59 Y29.32 E.15275
M204 P2000
G1 X51.047 Y29.4 F24000
M204 P500
G1 F1800
G1 X51.181 Y29.266 E.0072
G1 X70.406 Y29.266 E.73067
G1 X70.54 Y29.4 E.0072
G1 X70.54 Y68.286 E1.47791
G2 X71.469 Y69.265 I.98 J-.001 E.05657
G1 X99.841 Y69.266 E1.07832
G1 X99.975 Y69.4 E.0072
G1 X99.975 Y72.738 E.12687
G1 X99.869 Y72.865 E.00629
G1 X67.202 Y78.714 E1.2613
G3 X61.204 Y74.595 I-.684 J-5.43 E.30249
G1 X51.054 Y33.256 E1.61781
G1 X51.047 Y29.46 E.14427
M204 P2000
G1 E-2.5 F4200
G1 Z.4 F720
G1 X38.226 Y114.261 F24000
G1 Z.2 F720
G1 E2.5 F2400
M204 P500
G1 F1800
G3 X39.213 Y114.661 I-.341 J2.259 E.04085
G3 X40.216 Y115.997 I-1.731 J2.344 E.0644
G1 X40.291 Y116.395 E.01539
G1 X40.291 Y154.251 E1.43877
G1 X67.579 Y154.252 E1.03712
G3 X68.611 Y154.632 I-.251 J2.271 E.04221
G3 X69.652 Y155.997 I-1.724 J2.393 E.0662
G1 X69.727 Y156.395 E.01539
G1 X69.714 Y160.385 E.15165
G3 X67.978 Y162.343 I-2.506 J-.473 E.10443
G1 X34.969 Y168.251 E1.27449
G3 X26.454 Y162.427 I-.982 J-7.7 E.42885
G1 X16.268 Y120.941 E1.62356
G1 X16.227 Y116.405 E.1724
G3 X16.607 Y115.368 I2.287 J.25 E.04239
G3 X17.973 Y114.327 I2.395 J1.724 E.06623
G1 X18.371 Y114.252 E.01539
G1 X38.166 Y114.256 E.75234
M204 P2000
G1 X38.166 Y114.713 F24000
M204 P500
G1 F1800
G1 X38.17 Y114.713 E.00015
G3 X38.913 Y115.007 I-.279 J1.794 E.03062
G3 X39.773 Y116.111 I-1.437 J2.006 E.05393
G1 X39.834 Y116.418 E.0119
G1 X39.834 Y154.708 E1.45526
G1 X67.562 Y154.709 E1.05384
G3 X68.349 Y155.007 I-.231 J1.799 E.03228
M73 P1 R96
G3 X69.208 Y156.111 I-1.437 J2.006 E.0539
G1 X69.27 Y156.418 E.0119
G1 X69.262 Y160.315 E.14811
G3 X67.877 Y161.897 I-2.052 J-.399 E.08373
G1 X34.9 Y167.799 E1.27325
G3 X26.898 Y162.314 I-.913 J-7.247 E.40324
M73 Q1 S100
G1 X16.718 Y120.858 E1.6224
G1 X16.684 Y116.422 E.1686
G3 X16.983 Y115.63 I1.796 J.224 E.03248
G3 X18.086 Y114.77 I2.006 J1.437 E.0539
G1 X18.394 Y114.709 E.01193
G1 X38.106 Y114.713 E.74918
M204 P2000
G1 X38.106 Y115.17 F24000
M204 P500
G1 F1800
G1 X38.144 Y115.17 E.00144
G1 X38.276 Y115.2 E.00514
G3 X39.342 Y116.265 I-.62 J1.687 E.0591
G1 X39.377 Y116.441 E.00682
G1 X39.377 Y155.165 E1.47176
G1 X67.675 Y155.189 E1.0755
G3 X68.777 Y156.265 I-.571 J1.689 E.06053
G1 X68.812 Y156.441 E.00682
G1 X68.809 Y160.25 E.14477
G3 X67.777 Y161.451 I-1.605 J-.336 E.06281
G1 X34.831 Y167.347 E1.27205
G3 X27.341 Y162.202 I-.845 J-6.794 E.37763
G1 X17.169 Y120.775 E1.62126
G1 X17.165 Y116.305 E.16989
G3 X18.241 Y115.201 I1.688 J.569 E.06059
G1 X18.416 Y115.166 E.00678
G1 X38.046 Y115.17 E.74606
M204 P2000
G1 X38.046 Y115.623 F24000
M204 P500
G1 F1800
G1 X38.08 Y115.623 E.00129
G3 X38.911 Y116.419 I-.361 J1.209 E.04541
G1 X38.92 Y155.622 E1.48996
G1 X67.515 Y155.623 E1.08679
G3 X68.347 Y156.419 I-.36 J1.209 E.04544
G1 X68.356 Y160.193 E.14344
G3 X67.677 Y161.004 I-1.184 J-.301 E.04157
G1 X34.762 Y166.895 E1.27086
G3 X27.784 Y162.09 I-.777 J-6.342 E.35203
G1 X17.619 Y120.692 E1.62012
G1 X17.599 Y116.464 E.16069
M73 Q1 S99
G3 X18.395 Y115.632 I1.208 J.359 E.04545
G1 X37.986 Y115.623 E.74458
M204 P2000
G1 X37.986 Y116.08 F24000
M204 P500
G1 F1800
G1 X38.012 Y116.08 E.00099
G1 X38.096 Y116.115 E.00346
G1 X38.463 Y116.531 E.02108
G1 X38.463 Y155.534 E1.48236
G2 X38.958 Y156.079 I.529 J.017 E.03094
G1 X67.448 Y156.08 E1.0828
G3 X67.898 Y156.531 I-.495 J.946 E.02459
G1 X67.898 Y160.133 E.1369
G1 X67.537 Y160.565 E.0214
G1 X34.715 Y166.44 E1.26727
G3 X28.227 Y161.978 I-.73 J-5.886 E.32726
G1 X18.069 Y120.61 E1.61895
G1 X18.056 Y116.531 E.15503
G3 X18.507 Y116.08 I.945 J.494 E.02462
G1 X37.926 Y116.08 E.73804
M204 P2000
G1 X37.872 Y116.537 F24000
M204 P500
G1 F1800
G1 X38.006 Y116.671 E.0072
G1 X38.006 Y155.557 E1.47791
G2 X38.935 Y156.536 I.981 E.05657
G1 X67.307 Y156.537 E1.07832
G1 X67.441 Y156.671 E.0072
G1 X67.441 Y160.009 E.12687
G1 X67.335 Y160.137 E.00632
G1 X34.668 Y165.986 E1.2613
G3 X28.67 Y161.866 I-.684 J-5.431 E.30252
G1 X18.52 Y120.528 E1.61777
G1 X18.513 Y116.671 E.14659
G1 X18.647 Y116.537 E.0072
G1 X37.812 Y116.537 E.72839
M204 P2000
G1 E-2.5 F4200
G1 Z.4 F720
G1 X90.961 Y116.06 F24000
G1 Z.2 F720
G1 E2.5 F2400
M204 P500
G1 F1800
G1 X90.944 Y114.22 E.06993
G3 X91.324 Y113.183 I2.287 J.25 E.04239
G3 X92.69 Y112.142 I2.394 J1.725 E.06623
G1 X93.087 Y112.067 E.01536
G1 X112.913 Y112.071 E.75351
G3 X113.93 Y112.476 I-.312 J2.264 E.04201
G3 X114.933 Y113.812 I-1.731 J2.344 E.0644
G1 X115.008 Y114.21 E.01539
G1 X115.008 Y152.066 E1.43877
G1 X142.296 Y152.067 E1.03712
G3 X143.328 Y152.447 I-.251 J2.272 E.04221
G3 X144.368 Y153.812 I-1.724 J2.393 E.06618
G1 X144.443 Y154.21 E.01539
G1 X144.431 Y158.201 E.15168
G3 X142.695 Y160.158 I-2.507 J-.474 E.1044
G1 X109.686 Y166.066 E1.27449
G3 X101.171 Y160.242 I-.982 J-7.7 E.42885
M73 P1 R95
G1 X90.985 Y118.756 E1.62356
G1 X90.961 Y116.12 E.10019
M204 P2000
G1 X91.416 Y116.117 F24000
M204 P500
G1 F1800
G1 X91.401 Y114.237 E.07145
G3 X91.699 Y113.445 I1.796 J.224 E.03246
G3 X92.803 Y112.585 I2.007 J1.437 E.05393
G1 X93.111 Y112.524 E.01193
G1 X112.887 Y112.529 E.75161
G3 X113.63 Y112.822 I-.279 J1.793 E.03061
G3 X114.49 Y113.926 I-1.437 J2.006 E.05393
G1 X114.551 Y114.233 E.0119
G1 X114.551 Y152.523 E1.45526
G1 X142.279 Y152.524 E1.05384
G3 X143.066 Y152.822 I-.232 J1.799 E.03228
G3 X143.925 Y153.926 I-1.437 J2.006 E.0539
G1 X143.986 Y154.233 E.0119
G1 X143.979 Y158.13 E.14811
G3 X142.594 Y159.712 I-2.052 J-.399 E.08373
G1 X109.616 Y165.614 E1.27329
G3 X101.614 Y160.129 I-.913 J-7.247 E.40324
G1 X91.435 Y118.673 E1.62239
G1 X91.416 Y116.177 E.09487
M204 P2000
G1 X91.883 Y116.177 F24000
M204 P500
G1 F1800
G1 X91.881 Y114.12 E.07818
G3 X92.957 Y113.016 I1.689 J.569 E.06059
G1 X93.133 Y112.981 E.00682
G1 X112.861 Y112.986 E.74979
G1 X112.992 Y113.015 E.0051
G3 X114.059 Y114.08 I-.619 J1.687 E.05913
G1 X114.094 Y114.256 E.00682
G1 X114.094 Y152.98 E1.47176
G1 X142.392 Y153.004 E1.0755
G3 X143.494 Y154.08 I-.571 J1.689 E.06053
G1 X143.529 Y154.256 E.00682
G1 X143.526 Y158.065 E.14477
G3 X142.493 Y159.266 I-1.605 J-.336 E.06283
G1 X109.547 Y165.162 E1.27205
G3 X102.057 Y160.017 I-.844 J-6.794 E.37763
G1 X91.885 Y118.59 E1.62126
G1 X91.883 Y116.237 E.08943
M204 P2000
G1 X92.325 Y116.234 F24000
M204 P500
G1 F1800
G1 X92.316 Y114.279 E.0743
G3 X93.112 Y113.447 I1.208 J.359 E.04545
G1 X112.797 Y113.438 E.74815
G3 X113.628 Y114.234 I-.361 J1.209 E.04541
G1 X113.637 Y153.437 E1.48996
G1 X142.232 Y153.438 E1.08679
G3 X143.063 Y154.234 I-.361 J1.209 E.04541
G1 X143.072 Y158.008 E.14344
G3 X142.393 Y158.819 I-1.184 J-.301 E.04157
G1 X109.479 Y164.71 E1.27082
G3 X102.501 Y159.905 I-.777 J-6.341 E.35203
G1 X92.336 Y118.508 E1.62009
G1 X92.325 Y116.294 E.08415
M204 P2000
G1 X92.779 Y116.293 F24000
M204 P500
G1 F1800
G1 X92.773 Y114.346 E.074
G3 X93.224 Y113.895 I.945 J.494 E.02462
G1 X112.729 Y113.895 E.74131
G1 X112.813 Y113.93 E.00346
G1 X113.18 Y114.346 E.02108
G1 X113.18 Y153.349 E1.48236
G2 X113.675 Y153.894 I.529 J.017 E.03094
G1 X142.164 Y153.895 E1.08276
G3 X142.615 Y154.346 I-.495 J.946 E.02462
M73 P2 R95
G1 X142.615 Y157.948 E.1369
G1 X142.253 Y158.38 E.02142
G1 X109.432 Y164.256 E1.26724
G3 X102.944 Y159.793 I-.73 J-5.887 E.32729
G1 X92.786 Y118.425 E1.61895
G1 X92.779 Y116.353 E.07875
M204 P2000
G1 X93.233 Y116.352 F24000
M204 P500
G1 F1800
G1 X93.23 Y114.486 E.07092
G1 X93.364 Y114.352 E.0072
G1 X112.589 Y114.352 E.73067
G1 X112.722 Y114.486 E.00718
M73 Q2 S99
G1 X112.722 Y153.372 E1.47791
G2 X113.652 Y154.351 I.981 E.0566
G1 X142.024 Y154.352 E1.07832
G1 X142.158 Y154.486 E.0072
G1 X142.158 Y157.824 E.12687
G1 X142.052 Y157.952 E.00632
G1 X109.385 Y163.801 E1.2613
G3 X103.387 Y159.681 I-.684 J-5.431 E.30252
G1 X93.237 Y118.343 E1.61777
G1 X93.233 Y116.412 E.07339
M204 P2000
G1 E-2.5 F4200
G1 Z.4 F720
M486 S2
G1 X70.061 Y29.745 F24000
G1 Z.2 F720
G1 E2.5 F2400
M204 P500
;TYPE:External perimeter
;WIDTH:0.499999
G1 F1800
G1 X70.061 Y68.298 E1.46526
G1 X70.192 Y68.889 E.02301
G1 X70.516 Y69.345 E.02126
G1 X70.934 Y69.621 E.01904
G1 X71.451 Y69.743 E.02019
G1 X99.497 Y69.745 E1.06592
G1 X99.497 Y71.215 E.05587
G1 X99.497 Y72.446 E.04679
G1 X67.412 Y78.192 E1.23883
G3 X66.398 Y78.273 I-.987 J-5.981 E.03871
G1 X65.705 Y78.214 E.02643
G1 X64.993 Y78.043 E.02783
G1 X64.316 Y77.762 E.02786
G3 X63.314 Y77.112 I3.411 J-6.352 E.04545
G3 X62.346 Y76.033 I4.899 J-5.372 E.05518
G1 X61.991 Y75.396 E.02772
G3 X61.668 Y74.478 I11.792 J-4.662 E.037
G1 X51.526 Y33.172 E1.61652
G1 X51.526 Y29.745 E.13025
G1 X70.001 Y29.745 E.70217
M204 P2000
G1 X70.06 Y30.14 F24000
G1 X69.604 Y30.202
M204 P500
;TYPE:Perimeter
G1 F1800
G1 X69.604 Y68.298 E1.44789
G1 X69.71 Y68.897 E.02312
M73 Q2 S98
G1 X69.812 Y69.143 E.01012
G1 X70.155 Y69.636 E.02283
G1 X70.594 Y69.96 E.02074
G1 X70.823 Y70.064 E.00956
G1 X71.451 Y70.2 E.02442
G1 X99.04 Y70.202 E1.04856
G1 X99.04 Y71.215 E.0385
G1 X99.04 Y72.063 E.03223
G1 X67.093 Y77.785 E1.23351
G3 X65.785 Y77.763 I-.554 J-6.126 E.04981
G1 X65.127 Y77.605 E.02572
G3 X63.608 Y76.761 I1.782 J-5.002 E.06634
G3 X62.857 Y75.958 I4.801 J-5.241 E.04183
G3 X62.111 Y74.364 I4.774 J-3.205 E.06715
G1 X51.983 Y33.116 E1.61425
G1 X51.983 Y30.202 E.11075
G1 X69.544 Y30.202 E.66743
M204 P2000
G1 X69.147 Y30.659 F24000
M204 P500
G1 F1800
G1 X69.147 Y68.298 E1.43052
G1 X69.262 Y68.986 E.02651
G1 X69.432 Y69.397 E.0169
G1 X69.827 Y69.954 E.02595
G1 X70.331 Y70.333 E.02397
G1 X70.711 Y70.507 E.01588
G1 X71.451 Y70.657 E.0287
G1 X98.583 Y70.659 E1.03119
G1 X98.583 Y71.215 E.02113
G1 X98.583 Y71.681 E.01771
G1 X67.034 Y77.331 E1.21814
G3 X65.865 Y77.312 I-.497 J-5.494 E.04452
G1 X65.261 Y77.167 E.02361
G3 X63.758 Y76.291 I1.637 J-4.536 E.06648
G1 X63.334 Y75.837 E.02361
G3 X62.553 Y74.249 I4.175 J-3.039 E.06759
G1 X52.44 Y33.061 E1.6119
G1 X52.44 Y30.659 E.09129
G1 X69.087 Y30.659 E.63269
M204 P2000
G1 X68.69 Y31.116 F24000
M204 P500
G1 F1800
G1 X68.69 Y68.298 E1.41315
G1 X68.721 Y68.612 E.01199
G1 X68.906 Y69.377 E.02991
G1 X69.052 Y69.651 E.0118
G1 X69.499 Y70.272 E.02908
G1 X69.726 Y70.466 E.01135
G1 X70.315 Y70.85 E.02672
G1 X71.062 Y71.066 E.02955
G1 X71.451 Y71.114 E.0149
G1 X98.125 Y71.116 E1.01378
G1 X98.125 Y71.215 E.00376
G1 X98.125 Y71.298 E.00315
G1 X67.396 Y76.801 E1.18647
G3 X66.274 Y76.899 I-1.004 J-5.048 E.04289
G3 X65.229 Y76.667 I.719 J-5.709 E.04074
G3 X64.314 Y76.161 I1.604 J-3.979 E.03984
G3 X63.503 Y75.293 I3.697 J-4.268 E.04523
G1 X63.238 Y74.817 E.02071
G1 X62.996 Y74.135 E.0275
G1 X52.897 Y33.006 E1.60959
G1 X52.897 Y31.116 E.07183
G1 X68.63 Y31.116 E.59795
M204 P2000
G1 X67.574 Y31.299 F24000
M204 P500
;TYPE:Solid infill
;WIDTH:0.504078
G1 F1800
G1 X68.301 Y32.026 E.03942
G1 X68.301 Y32.678 E.025
G1 X67.128 Y31.504 E.06364
G1 X66.476 Y31.504 E.025
G1 X68.301 Y33.33 E.09899
G1 X68.301 Y33.982 E.025
G1 X65.824 Y31.504 E.13435
G1 X65.171 Y31.504 E.02504
G1 X68.301 Y34.634 E.16974
G1 X68.301 Y35.286 E.025
G1 X64.519 Y31.504 E.20509
G1 X63.867 Y31.504 E.025
G1 X68.301 Y35.939 E.24048
G1 X68.301 Y36.591 E.025
G1 X63.215 Y31.504 E.27583
G1 X62.563 Y31.504 E.025
G1 X68.301 Y37.243 E.31119
G1 X68.301 Y37.895 E.025
G1 X61.911 Y31.504 E.34655
G1 X61.258 Y31.504 E.02504
G1 X68.301 Y38.547 E.38193
G1 X68.301 Y39.199 E.025
