; generated by PrusaSlicer 2.9.0 on 2025-03-02 at 19:06:55 UTC


;
;

;
;

;
;

;
;
; 

; external perimeters extrusion width = 0.45mm
; perimeters extrusion width = 0.45mm
; infill extrusion width = 0.45mm
; solid infill extrusion width = 0.45mm
; top infill extrusion width = 0.42mm
; support material extrusion width = 0.36mm
; first layer extrusion width = 0.50mm

M73 P0 R294
M73 Q0 S301
M201 X4000 Y4000 Z400 E5000 ; sets maximum accelerations, mm/sec^2
M203 X400 Y400 Z12 E80 ; sets maximum feedrates, mm / sec
M204 P4000 R1250 T4000 ; sets acceleration (P, T) and retract acceleration (R), mm/sec^2
M205 X8.00 Y8.00 Z2.00 E10.00 ; sets the jerk limits, mm/sec
M205 S0 T0 ; sets the minimum extruding and travel feed rate, mm/sec

M486 S0
M486 Aheater_enclosure-heater_enclosure_lid.stl
M486 S-1

;TYPE:Custom
M862.3 P "MINI" ; printer model check
M862.1 P0.4 A0 F0 ; nozzle check
M862.5 P2 ; g-code level check
M862.6 P"Input shaper" ; FW feature check
M115 U6.1.2+7894
G90 ; use absolute coordinates
M83 ; extruder relative mode
M104 S170 ; set extruder temp for bed leveling
M140 S60 ; set bed temp
M109 R170 ; wait for bed leveling temp
M190 S60 ; wait for bed temp
M569 S1 X Y ; set stealthchop for X Y
M204 T1250 ; set travel acceleration
G28 ; home all without mesh bed level
G29 ; mesh bed leveling 
M104 S230 ; set extruder temp
G92 E0

G1 X0 Y-2 Z3 F2400

M109 S230 ; wait for extruder temp

; intro line
G1 X10 Z0.2 F1000
G1 X70 E8 F900
G1 X140 E10 F700
G92 E0

M569 S0 X Y ; set spreadcycle for X Y
M204 T4000 ; restore travel acceleration
M572 W0.06 ; set smooth time
M221 S95 ; set flow
G21 ; set units to millimeters
G90 ; use absolute coordinates
M83 ; use relative distances for extrusion
M572 S0.27
M107
;LAYER_CHANGE
;Z:0.2
;HEIGHT:0.2
G1 E-2.5 F4200
G1 Z.4 F720
G1 X16.766 Y9.929 F24000
G1 Z.2 F720
G1 E2.5 F2400
M204 P500
;TYPE:Skirt/Brim
;WIDTH:0.5
G1 F1800
G3 X16.836 Y9.823 I1.11 J.658 E.00483
G3 X17.699 Y9.157 I1.521 J1.077 E.04205
G1 X17.875 Y9.122 E.00682
G1 X91.469 Y9.122 E2.79704
G2 X93.392 Y8.924 I.002 J-9.461 E.0736
G1 X94.126 Y8.93 E.0279
G3 X95.181 Y9.168 I-.436 J4.387 E.04121
G1 X95.484 Y9.413 E.01481
G3 X95.961 Y10.504 I-2.67 J1.816 E.04552
G1 X95.932 Y10.895 E.0149
G3 X94.361 Y12.879 I-4.221 J-1.728 E.09746
G2 X91.322 Y17.25 I14.945 J13.633 E.20292
G2 X112.874 Y58.591 I24.655 J13.435 E2.09052
G2 X119.518 Y58.563 I2.831 J-117.743 E.25255
G2 X137.884 Y13.113 I-3.494 J-27.848 E2.26551
G3 X136.68 Y11.964 I5.55 J-7.025 E.06334
G1 X136.103 Y11.006 E.0425
G3 X136.065 Y10.339 I1.309 J-.409 E.02565
G3 X136.551 Y9.377 I3.599 J1.216 E.0411
G1 X136.818 Y9.169 E.01286
G3 X139.703 Y9.09 I1.576 J4.873 E.11119
G1 X162.125 Y9.122 E.85218
G1 X162.301 Y9.157 E.00682
G3 X163.365 Y10.222 I-.616 J1.679 E.05906
G1 X163.4 Y10.397 E.00678
G1 X163.4 Y116.7 E4.04019
G3 X155.03 Y125.088 I-8.404 J-.015 E.49983
G1 X24.994 Y125.088 E4.94219
G3 X16.6 Y116.701 I.01 J-8.404 E.5007
M73 Q0 S300
G1 X16.6 Y10.397 E4.04022
G3 X16.737 Y9.982 I1.276 J.19 E.01669
M73 P0 R293
M204 P2000
M204 T4000
G1 X16.737 Y9.982 F24000
G1 X17.148 Y10.196
M204 P500
G1 F1800
G3 X17.853 Y9.588 I1.118 J.584 E.03624
G1 X91.472 Y9.579 E2.79799
G2 X93.407 Y9.382 I.027 J-9.337 E.07406
G3 X94.875 Y9.525 I.223 J5.284 E.05624
G1 X95.18 Y9.764 E.01473
G1 X95.493 Y10.455 E.02883
G1 X95.487 Y10.791 E.01277
G3 X94.062 Y12.533 I-3.856 J-1.7 E.08659
G2 X90.921 Y17.031 I14.974 J13.803 E.20914
G2 X112.853 Y59.048 I25.054 J13.654 E2.12569
G2 X119.568 Y59.018 I2.845 J-115.486 E.25525
G2 X138.214 Y12.795 I-3.543 J-28.301 E2.30429
G3 X137.037 Y11.678 I5.863 J-7.353 E.06175
G1 X136.529 Y10.841 E.03721
G1 X136.497 Y10.509 E.01268
G1 X136.82 Y9.764 E.03086
G1 X137.075 Y9.548 E.0127
G3 X139.652 Y9.545 I1.294 J4.941 E.09901
G1 X140.53 Y9.579 E.03339
G1 X162.103 Y9.579 E.81991
G3 X162.934 Y10.375 I-.361 J1.209 E.04541
G1 X162.943 Y116.697 E4.04091
G3 X155.021 Y124.631 I-7.947 J-.012 E.47301
G1 X24.997 Y124.631 E4.94173
G3 X17.057 Y116.698 I.007 J-7.946 E.47365
G1 X17.057 Y10.419 E4.03927
G3 X17.121 Y10.25 I1.209 J.361 E.00687
M204 P2000
G1 X17.121 Y10.25 F24000
G1 X17.524 Y10.47
M204 P500
G1 F1800
G3 X17.965 Y10.036 I.936 J.512 E.02386
G1 X91.475 Y10.036 E2.79385
G2 X93.458 Y9.836 I.036 J-9.599 E.07589
G1 X94.078 Y9.844 E.02357
G1 X94.71 Y9.96 E.02442
G3 X95.035 Y10.679 I-.77 J.782 E.03068
G3 X93.765 Y12.184 I-3.412 J-1.591 E.07572
G2 X90.519 Y16.812 I15.029 J13.994 E.21553
G2 X112.832 Y59.505 I25.455 J13.873 E2.16089
G2 X119.618 Y59.473 I2.86 J-113.482 E.25795
G2 X138.839 Y12.813 I-3.613 J-28.777 E2.3262
G2 X137.775 Y11.829 I-4.081 J3.345 E.05526
G3 X136.965 Y10.678 I3.671 J-3.444 E.05367
G3 X137.29 Y9.96 I1.098 J.065 E.03063
G3 X139.601 Y10 I1.073 J4.744 E.08869
G1 X140.527 Y10.036 E.03522
G1 X162.035 Y10.036 E.81744
G3 X162.486 Y10.487 I-.495 J.946 E.02462
G1 X162.486 Y116.694 E4.03654
G3 X155.012 Y124.174 I-7.489 J-.009 E.44618
G1 X25 Y124.174 E4.94128
G3 X17.514 Y116.695 I.004 J-7.489 E.4466
G1 X17.514 Y10.528 E4.03502
M204 P2000
G1 X17.514 Y10.528 F24000
G1 X17.971 Y10.627
M204 P500
G1 F1800
G1 X18.105 Y10.493 E.0072
G1 X91.478 Y10.493 E2.78864
G2 X93.475 Y10.293 I.06 J-9.49 E.07642
G3 X94.454 Y10.377 I.198 J3.433 E.03747
G1 X94.553 Y10.594 E.00907
G3 X93.469 Y11.835 I-2.775 J-1.329 E.0634
G2 X90.852 Y15.321 I12.185 J11.872 E.16613
G2 X112.812 Y59.961 I25.122 J15.363 E2.25187
G2 X119.668 Y59.927 I2.875 J-111.698 E.26062
G2 X139.188 Y12.518 I-3.663 J-29.231 E2.36372
G2 X138.104 Y11.511 I-4.089 J3.315 E.05642
G3 X137.447 Y10.595 I2.775 J-2.684 E.043
G1 X137.546 Y10.377 E.0091
G3 X138.526 Y10.293 I.781 J3.353 E.03751
G2 X140.524 Y10.493 I1.936 J-9.289 E.07646
G1 X161.895 Y10.493 E.81223
G1 X162.029 Y10.627 E.0072
G1 X162.029 Y116.686 E4.03091
G3 X155.003 Y123.717 I-7.032 J-.001 E.41955
M73 Q0 S299
G1 X25.003 Y123.717 E4.94082
G3 X17.971 Y116.687 I.001 J-7.032 E.41973
G1 X17.971 Y10.687 E4.02867
M204 P2000
G1 E-2.5 F4200
M73 P0 R292
G1 X17.971 Y10.687 Z.4 F721
M486 S0
G1 X168.122 Y6.374 F24000
G1 Z.2 F720
G1 E2.5 F2400
M204 P500
;TYPE:Support material
G1 F1800
G3 X164.25 Y20.667 I-.046 J7.659 E1.06489
G1 X164.25 Y10.462 E.38785
G1 X163.363 Y8.707 E.07474
G1 X162.773 Y8.512 E.02362
G3 X168.054 Y6.374 I5.268 J5.423 E.22202
M204 P2000
G1 X168.054 Y6.374 F24000
G1 X175.131 Y16.459
M204 P500
G1 F1800
G1 X175.131 Y12.417 E.15362
G2 X174.56 Y10.792 I-6.635 J1.42 E.06564
G1 X174.56 Y17.269 E.24617
G1 X173.988 Y18.216 E.04205
G1 X173.988 Y9.844 E.31819
G1 X173.417 Y9.148 E.03422
G1 X173.417 Y18.913 E.37113
G1 X172.846 Y19.48 E.03058
G1 X172.846 Y8.58 E.41427
G1 X172.274 Y8.12 E.0279
G1 X172.274 Y19.94 E.44923
G1 X171.703 Y20.292 E.02549
G1 X171.703 Y7.768 E.47599
G1 X171.132 Y7.445 E.02493
G1 X171.132 Y20.614 E.50051
G1 X170.56 Y20.83 E.02324
G1 X170.56 Y7.234 E.51673
G1 X169.989 Y7.03 E.02305
G1 X169.989 Y21.031 E.53213
G1 X169.418 Y21.141 E.0221
G1 X169.418 Y6.919 E.54053
G1 X168.846 Y6.815 E.0221
G1 X168.846 Y21.247 E.54851
G1 X168.275 Y21.263 E.02171
G1 X168.275 Y6.792 E.54999
G1 X167.703 Y6.786 E.02174
G1 X167.703 Y21.28 E.55086
G1 X167.132 Y21.204 E.02189
G1 X167.132 Y6.856 E.54531
G1 X166.561 Y6.933 E.0219
G1 X166.561 Y21.127 E.53946
G1 X166.525 Y21.122 E.00138
G1 X165.989 Y20.959 E.02129
G1 X165.989 Y7.101 E.52669
G1 X165.418 Y7.276 E.0227
G1 X165.418 Y20.784 E.51339
G1 X164.847 Y20.513 E.02402
G1 X164.847 Y7.554 E.49252
G1 X164.275 Y7.854 E.02455
G1 X164.275 Y9.6 E.06636
G1 X163.704 Y8.469 E.04815
G1 X163.704 Y7.999 E.01786
M204 P2000
G1 E-2.5 F4200
G1 X163.704 Y7.999 Z.4 F720
G1 X13.316 Y5.3 F24000
G1 Z.2 F720
G1 E2.5 F2400
M204 P500
G1 F1800
G3 X18.053 Y8.272 I-1.312 J7.354 E.21784
G1 X17.94 Y8.272 E.00429
G1 X16.185 Y9.159 E.07474
G1 X15.75 Y10.482 E.05293
G1 X15.75 Y19.307 E.33541
G3 X13.249 Y5.289 I-3.835 J-6.548 E1.10974
M204 P2000
G1 X13.249 Y5.289 F24000
G1 X16.867 Y8.583
M204 P500
G1 F1800
G1 X16.867 Y7.536 E.03979
G1 X16.296 Y7.07 E.02801
G1 X16.296 Y8.642 E.05975
G1 X15.847 Y8.868 E.0191
G1 X15.725 Y9.241 E.01492
G1 X15.725 Y6.658 E.09817
G1 X15.153 Y6.349 E.02471
G1 X15.153 Y19.162 E.48698
G1 X14.582 Y19.425 E.02389
G1 X14.582 Y6.086 E.50697
G1 X14.011 Y5.889 E.02296
G1 X14.011 Y19.621 E.5219
G1 X13.439 Y19.773 E.02249
G1 X13.439 Y5.738 E.53342
G1 X12.868 Y5.642 E.02201
G1 X12.868 Y19.868 E.54068
G1 X12.297 Y19.926 E.02181
G1 X12.297 Y5.584 E.54509
G1 X11.725 Y5.584 E.02174
G1 X11.725 Y19.926 E.54509
G1 X11.331 Y19.926 E.01497
G1 X11.154 Y19.897 E.00682
G1 X11.154 Y5.614 E.54284
G1 X10.583 Y5.709 E.022
G1 X10.583 Y19.802 E.53562
G1 X10.011 Y19.68 E.02223
G1 X10.011 Y5.831 E.52635
G1 X9.44 Y6.027 E.02294
G1 X9.44 Y19.484 E.51145
G1 X8.868 Y19.255 E.02342
G1 X8.868 Y6.256 E.49404
G1 X8.297 Y6.565 E.02468
G1 X8.297 Y18.946 E.47056
G1 X7.726 Y18.574 E.0259
G1 X7.726 Y6.937 E.44228
G1 X7.154 Y7.381 E.02752
G1 X7.154 Y18.129 E.40849
G1 X6.583 Y17.54 E.03118
G1 X6.583 Y7.97 E.36372
G2 X6.012 Y8.695 I2.368 J2.454 E.03518
G1 X6.012 Y16.815 E.30861
G3 X5.44 Y15.824 I3.623 J-2.748 E.0436
G1 X5.44 Y9.687 E.23324
G2 X4.869 Y11.407 I6.052 J2.965 E.06909
G1 X4.869 Y14.941 E.13431
M204 P2000
G1 E-2.5 F4200
G1 X4.869 Y14.941 Z.4 F721
G1 X118.716 Y60.929 F24000
G1 Z.2 F720
G1 E2.5 F2400
M204 P500
;TYPE:External perimeter
;WIDTH:0.528577
G1 F1800
G1 X119.2 Y60.94 E.01955
;WIDTH:0.555298
G1 X119.732 Y60.949 E.02267
;WIDTH:0.552598
G1 X120.464 Y61.07 E.03144
;WIDTH:0.526299
G1 X121.195 Y61.192 E.02979
;WIDTH:0.499999
G3 X124.106 Y61.856 I-5.849 J32.365 E.11352
G3 X129.658 Y64.034 I-8.328 J29.398 E.22703
G3 X134.669 Y67.269 I-13.988 J27.165 E.22705
G3 X138.939 Y71.433 I-19.093 J23.854 E.22704
G3 X142.3 Y76.36 I-23.441 J19.598 E.22704
G3 X144.618 Y81.855 I-26.86 J14.565 E.22703
G3 X145.801 Y87.701 I-29.214 J8.954 E.22705
G3 X145.802 Y93.665 I-30.41 J2.987 E.22703
G3 X144.621 Y99.511 I-30.492 J-3.116 E.22703
G3 X138.947 Y109.936 I-28.883 J-8.965 E.45405
G3 X135.822 Y113.141 I-23.755 J-20.036 E.17028
G3 X130.98 Y116.623 I-20.177 J-22.947 E.22703
G3 X125.544 Y119.077 I-15.231 J-26.49 E.22704
G3 X122.593 Y119.902 I-10.123 J-30.527 E.1165
G3 X116.752 Y120.629 I-6.673 J-29.783 E.22406
G3 X113.469 Y120.525 I-.699 J-29.959 E.1249
G1 X112.282 Y120.407 E.04534
G3 X107.894 Y119.521 I3.942 J-30.826 E.17028
G3 X102.342 Y117.343 I8.328 J-29.399 E.22703
G3 X97.331 Y114.108 I13.988 J-27.165 E.22705
G3 X93.061 Y109.944 I19.094 J-23.855 E.22704
G3 X89.7 Y105.017 I23.441 J-19.598 E.22704
G3 X87.382 Y99.522 I26.859 J-14.564 E.22703
G3 X86.199 Y93.676 I29.215 J-8.955 E.22705
G3 X86.643 Y84.759 I30.169 J-2.969 E.34056
G3 X88.4 Y79.06 I29.939 J6.109 E.22702
G3 X92.122 Y72.609 I28.042 J11.884 E.28377
G3 X95.084 Y69.252 I24.726 J18.827 E.1703
G3 X99.746 Y65.533 I21.295 J21.911 E.22702
G3 X105.053 Y62.811 I16.532 J25.697 E.22704
G3 X110.805 Y61.192 I11.111 J28.459 E.22747
;WIDTH:0.526322
G1 X111.537 Y61.07 E.02983
;WIDTH:0.552644
G3 X112.833 Y60.922 I1.424 J6.687 E.05537
;WIDTH:0.527533
G1 X113.775 Y60.917 E.03796
;WIDTH:0.501246
G1 X118.221 Y60.917 E.16944
;WIDTH:0.528577
G1 X118.656 Y60.927 E.01757
M204 P2000
G1 X119.056 Y60.936 F24000
G1 E-2.5 F4200
G1 Z.4 F720
G1 X152.569 Y109.203 F24000
G1 Z.2 F720
G1 E2.5 F2400
M204 P500
;TYPE:Perimeter
;WIDTH:0.499999
G1 F1800
G1 X152.624 Y109.102 E.00437
G3 X153.199 Y108.471 I2.913 J2.074 E.03252
G3 X153.93 Y108.04 I2.172 J2.848 E.03233
G3 X155.157 Y107.829 I1.165 J3.112 E.0476
G1 X155.883 Y107.972 E.02812
G3 X156.645 Y108.353 I-1.201 J3.353 E.03246
G3 X157.26 Y108.941 I-2.137 J2.849 E.03242
G3 X157.771 Y109.986 I-2.599 J1.919 E.04445
G1 X157.862 Y110.611 E.024
G1 X157.805 Y111.229 E.02359
G3 X157.522 Y112.03 I-3.493 J-.785 E.03236
G3 X157.015 Y112.714 I-3.094 J-1.766 E.03244
G3 X156.328 Y113.217 I-2.436 J-2.599 E.03244
G3 X155.476 Y113.509 I-1.739 J-3.693 E.0343
G3 X154.502 Y113.509 I-.488 J-5.821 E.03706
G1 X153.851 Y113.304 E.02594
G3 X153.131 Y112.849 I1.529 J-3.217 E.03245
G3 X152.577 Y112.202 I2.41 J-2.623 E.03245
G3 X152.239 Y111.42 I3.077 J-1.797 E.03246
G3 X152.138 Y110.569 I3.66 J-.863 E.03264
G1 X152.262 Y109.873 E.02687
G1 X152.379 Y109.553 E.01295
G1 X152.541 Y109.256 E.01286
M204 P2000
G1 X152.541 Y109.256 F24000
G1 X152.96 Y109.442
M204 P500
G1 F1800
G1 X153.026 Y109.321 E.00524
G1 X153.516 Y108.8 E.02718
G1 X154.139 Y108.446 E.02723
G1 X154.838 Y108.292 E.0272
G1 X155.281 Y108.303 E.01684
G1 X155.782 Y108.417 E.01953
G1 X156.416 Y108.749 E.0272
G1 X156.925 Y109.252 E.0272
G1 X157.263 Y109.883 E.02721
G1 X157.395 Y110.494 E.02376
G1 X157.35 Y111.183 E.02624
G1 X157.101 Y111.852 E.02713
G1 X156.664 Y112.42 E.02724
G1 X156.08 Y112.834 E.02721
G3 X155.197 Y113.082 I-1.538 J-3.773 E.03493
G1 X154.684 Y113.069 E.0195
G1 X153.996 Y112.87 E.02722
G1 X153.398 Y112.477 E.0272
G1 X152.942 Y111.926 E.02718
G1 X152.668 Y111.264 E.02723
G1 X152.602 Y110.724 E.02068
G3 X152.78 Y109.772 I2.645 J.002 E.03702
G1 X152.931 Y109.494 E.01202
M204 P2000
G1 X152.931 Y109.494 F24000
G1 X153.35 Y109.68
M204 P500
;TYPE:External perimeter
G1 F1800
G1 X153.427 Y109.54 E.00607
G1 X153.836 Y109.127 E.02209
G1 X154.347 Y108.853 E.02204
G1 X154.917 Y108.742 E.02207
G1 X155.18 Y108.749 E.01
G1 X155.68 Y108.863 E.01949
G1 X156.188 Y109.145 E.02208
G1 X156.59 Y109.563 E.02204
G1 X156.851 Y110.082 E.02208
G1 X156.948 Y110.611 E.02044
G1 X156.896 Y111.136 E.02005
G1 X156.68 Y111.675 E.02207
G1 X156.314 Y112.126 E.02207
G1 X155.832 Y112.45 E.02207
G1 X155.276 Y112.617 E.02206
G1 X154.695 Y112.612 E.02208
G1 X154.142 Y112.437 E.02204
G1 X153.665 Y112.106 E.02207
G1 X153.306 Y111.65 E.02206
G1 X153.098 Y111.107 E.0221
G1 X153.052 Y110.596 E.0195
G1 X153.158 Y110.054 E.02099
G1 X153.182 Y109.99 E.0026
G1 X153.322 Y109.733 E.01112
M204 P2000
G1 X153.562 Y109.414 F24000
G1 E-2.5 F4200
G1 Z.4 F720
G1 X25.634 Y107.908 F24000
G1 Z.2 F720
G1 E2.5 F2400
M204 P500
;TYPE:Perimeter
G1 F1800
G3 X26.149 Y108.073 I-.999 J3.996 E.02057
G3 X26.861 Y108.513 I-1.558 J3.321 E.03188
G1 X27.211 Y108.873 E.01908
G3 X27.621 Y109.553 I-3.33 J2.471 E.03022
G3 X27.839 Y110.376 I-3.308 J1.318 E.03244
G3 X27.805 Y111.227 I-3.55 J.284 E.03245
G3 X27.522 Y112.03 I-3.476 J-.776 E.03244
G3 X27.015 Y112.714 I-3.093 J-1.766 E.03244
G3 X26.328 Y113.217 I-2.436 J-2.599 E.03244
G3 X25.524 Y113.497 I-1.561 J-3.201 E.03243
G3 X24.673 Y113.526 I-.549 J-3.52 E.03244
G3 X23.851 Y113.304 I.513 J-3.525 E.03244
G3 X23.131 Y112.849 I1.529 J-3.217 E.03245
G3 X22.577 Y112.202 I2.41 J-2.623 E.03245
G3 X22.239 Y111.42 I3.077 J-1.797 E.03246
G3 X22.138 Y110.603 I3.541 J-.852 E.03135
G1 X22.262 Y109.873 E.02814
G3 X22.624 Y109.102 I3.382 J1.118 E.03245
G3 X23.197 Y108.473 I2.902 J2.065 E.03242
G3 X23.93 Y108.04 I2.165 J2.828 E.03243
G3 X24.759 Y107.842 I1.235 J3.341 E.03247
G1 X25.384 Y107.853 E.02376
G3 X25.576 Y107.894 I-.749 J4.051 E.00746
M204 P2000
G1 X25.576 Y107.894 F24000
G1 X25.531 Y108.364
M204 P500
G1 F1800
G1 X26.004 Y108.506 E.01877
G1 X26.533 Y108.838 E.02374
G1 X26.885 Y109.194 E.01903
G1 X27.22 Y109.772 E.02539
G1 X27.391 Y110.467 E.0272
G1 X27.351 Y111.181 E.02718
G1 X27.101 Y111.852 E.02721
G1 X26.664 Y112.42 E.02724
G1 X26.08 Y112.834 E.02721
G1 X25.4 Y113.057 E.0272
G3 X24.483 Y113.034 I-.355 J-4.165 E.03493
G1 X23.996 Y112.87 E.01953
G1 X23.398 Y112.477 E.0272
G1 X22.942 Y111.926 E.02718
G1 X22.668 Y111.264 E.02723
G1 X22.597 Y110.654 E.02334
G1 X22.71 Y109.964 E.02657
G1 X23.026 Y109.321 E.02723
G1 X23.516 Y108.8 E.02718
G1 X24.139 Y108.446 E.02723
G1 X24.838 Y108.292 E.0272
G1 X25.35 Y108.309 E.01947
G1 X25.473 Y108.346 E.00488
M204 P2000
G1 X25.473 Y108.346 F24000
G1 X25.432 Y108.797
M204 P500
;TYPE:External perimeter
G1 F1800
G1 X25.858 Y108.94 E.01708
G1 X26.282 Y109.22 E.01931
G1 X26.573 Y109.54 E.01644
G1 X26.818 Y109.99 E.01947
G1 X26.943 Y110.557 E.02207
G1 X26.896 Y111.136 E.02208
G1 X26.68 Y111.675 E.02207
G1 X26.314 Y112.126 E.02207
G1 X25.832 Y112.45 E.02207
G1 X25.276 Y112.617 E.02206
G1 X24.766 Y112.614 E.01938
G3 X24.081 Y112.406 I.639 J-3.332 E.02726
G1 X23.665 Y112.106 E.01949
G1 X23.306 Y111.65 E.02206
G1 X23.098 Y111.107 E.0221
G1 X23.052 Y110.603 E.01923
G1 X23.158 Y110.054 E.02125
G1 X23.427 Y109.54 E.02205
G1 X23.836 Y109.127 E.02209
G1 X24.347 Y108.853 E.02204
G1 X24.917 Y108.742 E.02207
